!!!!SEGMENT: pl-stab--9b--001-002_rodowski-aleksander--vespere-de-confessoribus-dixit-dominus.krn
!!!cenid: 18xx:3469
!!!COM: Rodowski, Aleksander
!!!COM-rismID: pe30009627
!!!CDT: <1790->1810
!!!CNT: Polish
!!!OPR: Vespere de Confessoribus
!!!OTL: Dixit Dominus
!!!OMV: 002
!!!PDT:
!!!AGN: Sacred; Vespers
!!!SMS-siglum: PL-STAb
!!!SMS-shelfmark: 9b
!!!SMS-shelfwork: 001-002 M
!!!SMS-variant:
!!!SMS-altvar:
!!!NIFC-rismSourceID: 301050672
!!!NIFC-islandoraID: pl-stab:2141
!!!URL-pdf-islandora: https://repozytorium.nifc.pl/islandora/object/pl-stab%3A2141/datastream/PDF/view
!!!URL-scan: https://polish.musicsources.pl/pl/lokalizacje/galeria/rekopisy/4649 @EN{Scan on Polish Music Herritage in Open Access Website} @PL{Skany w portalu Dziedzictwo Muzyki Polskiej w otwartym dostępie}
!!!ONB-nifc: UWAGA: części Nieszporów: 1. Domine ad adjuvandum, 2. Dixit Dominus, 3. De torrente, 4. Laudate pueri, 5. Magnificat, 6. Salve Regina
!!!AIN: 1 bass 2 clars 2 cor 1 organ 1 soprn 2 violn
!!!key: C
**kern	**fba	**dynam	**kern	**dynam	**kern	**dynam	**kern	**text	**kern	**text	**kern	**kern	**kern	**kern
*	*	*	*group4	*	*group4	*	*group3	*	*group3	*	*group2	*group2	*group1	*group1
*part9	*part9	*part9	*part8	*part8	*part7	*part7	*part6	*part6	*part5	*part5	*part4	*part3	*part2	*part1
*staff9	*	*	*staff8	*	*staff7	*	*staff6	*staff6	*staff5	*staff5	*staff4	*staff3	*staff2	*staff1
*I"Organo	*	*	*I"Violino Secundo	*	*I"Violino Primo	*	*I"Baſso	*	*I"Canto.	*	*I"Corno II	*I"Corno I	*I"Clarinetto Secundo	*I"Clarinetto Primo
*I'org	*	*	*I'vl 2	*	*I'vl 1	*	*I'B	*	*I'S	*	*I'cor 2	*I'cor 1	*I'cl 2	*I'cl 1
*Iorgan	*	*	*Ivioln	*	*Ivioln	*	*Ibass	*	*Isoprn	*	*Icor	*Icor	*Iclars	*Iclars
*ICklav	*	*	*ICstr	*	*ICstr	*	*ICvox	*	*ICvox	*	*ICbras	*ICbras	*ICww	*ICww
*IGcont	*	*	*	*	*	*	*	*	*	*	*	*	*	*
*clefF4	*	*	*clefG2	*	*clefG2	*	*clefF4	*	*clefC1	*	*clefG2	*clefG2	*clefG2	*clefG2
*k[]	*	*	*k[]	*	*k[]	*	*k[]	*	*k[]	*	*k[]	*k[]	*k[]	*k[]
*C:	*	*	*C:	*	*C:	*	*C:	*	*C:	*	*C:	*C:	*C:	*C:
*M3/4	*	*	*M3/4	*	*M3/4	*	*M3/4	*	*M3/4	*	*M3/4	*M3/4	*M3/4	*M3/4
*2\right	*	*	*2\right	*	*2\right	*	*2\right	*	*2\right	*	*	*	*2\right	*2\right
=1	=1	=1	=1	=1	=1	=1	=1	=1	=1	=1	=1	=1	=1	=1
*tremolo	*	*	*	*	*	*	*	*	*	*	*	*	*	*
!	!	!LO:DY:a:t=p.	!	!	!	!LO:DY:a:t=p.	!	!	!	!	!	!LO:TX:t=P:problem=partie Corni I i II wymienione na stronie tytułowej, w rękopisie brak zapisu dla tych instrumentów	!	!LO:TX:a:i:t=allegro
!	!	!	!LO:TX:i:t=allegro	!	!	!	!	!	!	!	!	!	!LO:TX:i:t=allegro	!
!	!	!	!	!LO:DY:b:t=p.	!	!	!	!	!	!	!	!	!	!
8C\L	.	p	2c/	p	2c/	p	2.r	.	2.r	.	2.ryy	2.ryy	2.r	2.r
8C\	.	.	.	.	.	.	.	.	.	.	.	.	.	.
8C\	.	.	.	.	.	.	.	.	.	.	.	.	.	.
8C\	.	.	.	.	.	.	.	.	.	.	.	.	.	.
8C\	.	.	16c/LL	.	16c/LL	.	.	.	.	.	.	.	.	.
.	.	.	16B/	.	16B/	.	.	.	.	.	.	.	.	.
8C\J	.	.	16c/	.	16c/	.	.	.	.	.	.	.	.	.
.	.	.	16B/JJ	.	16d/JJ	.	.	.	.	.	.	.	.	.
=2	=2	=2	=2	=2	=2	=2	=2	=2	=2	=2	=2	=2	=2	=2
8C\L	.	.	2c/	.	2e/	.	2.r	.	2.r	.	2.ryy	2.ryy	2.r	2.r
8C\	.	.	.	.	.	.	.	.	.	.	.	.	.	.
8C\	.	.	.	.	.	.	.	.	.	.	.	.	.	.
8C\	.	.	.	.	.	.	.	.	.	.	.	.	.	.
8C\	.	.	16c/LL	.	16e/LL	.	.	.	.	.	.	.	.	.
.	.	.	16B/	.	16d/	.	.	.	.	.	.	.	.	.
8C\J	.	.	16c/	.	16e/	.	.	.	.	.	.	.	.	.
.	.	.	16d/JJ	.	16f/JJ	.	.	.	.	.	.	.	.	.
=3	=3	=3	=3	=3	=3	=3	=3	=3	=3	=3	=3	=3	=3	=3
8C\L	.	.	4e/	.	4g/	.	2.r	.	2.r	.	2.ryy	2.ryy	2.r	2.r
8C\	.	.	.	.	.	.	.	.	.	.	.	.	.	.
8C\	.	.	4a/	.	4cc/	.	.	.	.	.	.	.	.	.
8C\	.	.	.	.	.	.	.	.	.	.	.	.	.	.
8C\	.	.	4g/	.	4b/	.	.	.	.	.	.	.	.	.
8C\J	.	.	.	.	.	.	.	.	.	.	.	.	.	.
*Xtremolo	*	*	*	*	*	*	*	*	*	*	*	*	*	*
=4	=4	=4	=4	=4	=4	=4	=4	=4	=4	=4	=4	=4	=4	=4
8BB/L	7 5	.	4f/	.	4a/	.	2.r	.	2.r	.	2.ryy	2.ryy	2.r	2.r
8BB/	.	.	.	.	.	.	.	.	.	.	.	.	.	.
8C/	.	.	4e/	.	4g/	.	.	.	.	.	.	.	.	.
8C/	.	.	.	.	.	.	.	.	.	.	.	.	.	.
8E/	.	.	8r	.	8r	.	.	.	.	.	.	.	.	.
8C/J	.	.	8c/	.	8e/	.	.	.	.	.	.	.	.	.
=5	=5	=5	=5	=5	=5	=5	=5	=5	=5	=5	=5	=5	=5	=5
4G\	.	.	8e/L	.	8g/L	.	2.r	.	2.r	.	2.ryy	2.ryy	2.r	2.r
.	.	.	8d/J	.	8f/J	.	.	.	.	.	.	.	.	.
8r	.	.	4B/	.	4.d/	.	.	.	.	.	.	.	.	.
8GG/L	.	.	.	.	.	.	.	.	.	.	.	.	.	.
8BB/	.	.	4c/	.	.	.	.	.	.	.	.	.	.	.
8GG/J	.	.	.	.	8e/	.	.	.	.	.	.	.	.	.
=6	=6	=6	=6	=6	=6	=6	=6	=6	=6	=6	=6	=6	=6	=6
4C/	.	.	16d/LL	.	16f/LL	.	2.r	.	2.r	.	2.ryy	2.ryy	2.r	2.r
.	.	.	16c/	.	16e/	.	.	.	.	.	.	.	.	.
.	.	.	16f/	.	16a/	.	.	.	.	.	.	.	.	.
.	.	.	16e/JJ	.	16g/JJ	.	.	.	.	.	.	.	.	.
8r	.	.	4.e/	.	4.g/	.	.	.	.	.	.	.	.	.
8C/L	.	.	.	.	.	.	.	.	.	.	.	.	.	.
8E/	.	.	.	.	.	.	.	.	.	.	.	.	.	.
8C/J	.	.	8c/	.	8e/	.	.	.	.	.	.	.	.	.
=7	=7	=7	=7	=7	=7	=7	=7	=7	=7	=7	=7	=7	=7	=7
4F\	.	.	8A/L	.	8d/L	.	2.r	.	2.r	.	2.ryy	2.ryy	2.r	2.r
.	.	.	8d/	.	8f/	.	.	.	.	.	.	.	.	.
4r	.	.	8.f/	.	8.a/	.	.	.	.	.	.	.	.	.
.	.	.	16e/K	.	16g/K	.	.	.	.	.	.	.	.	.
8r	.	.	8d/	.	8f/	.	.	.	.	.	.	.	.	.
8F#X\	.	.	8c/J	.	8e/J	.	.	.	.	.	.	.	.	.
=8	=8	=8	=8	=8	=8	=8	=8	=8	=8	=8	=8	=8	=8	=8
4G\	.	.	4c/	.	4e/	.	2.r	.	2.r	.	2.ryy	2.ryy	2.r	2.r
4GG/	.	.	8B/L	.	8d/L	.	.	.	.	.	.	.	.	.
.	.	.	8e/	.	8g/	.	.	.	.	.	.	.	.	.
4r	.	.	8f/	.	8a/	.	.	.	.	.	.	.	.	.
.	.	.	8d/J	.	8b/J	.	.	.	.	.	.	.	.	.
=9	=9	=9	=9	=9	=9	=9	=9	=9	=9	=9	=9	=9	=9	=9
*tremolo	*	*	*	*	*	*	*	*	*	*	*	*	*	*
!	!	!LO:DY:a:t=f.	!LO:LB:g=original	!LO:DY:a:t=for	!	!LO:DY:a:t=for	!	!	!	!	!	!	!	!
8C/L	.	f	2e 2G/	f	2cc 2e 2G/	f	2c\	Di-	2cc\	Di-	2.ryy	2.ryy	2e/	2cc\
8C/	.	.	.	.	.	.	.	.	.	.	.	.	.	.
8C/	.	.	.	.	.	.	.	.	.	.	.	.	.	.
8C/	.	.	.	.	.	.	.	.	.	.	.	.	.	.
.	.	.	.	.	8qqdd/	.	.	.	.	.	.	.	.	.
8C/	.	.	16e/LL	.	16cc\LL	.	4c\	-xit	8cc\L	-xit	.	.	4b\	4dd\
.	.	.	16d/	.	16b\	.	.	.	.	.	.	.	.	.
8C/J	.	.	16e/	.	16cc\	.	.	.	8dd\J	.	.	.	.	.
.	.	.	16f/JJ	.	16dd\JJ	.	.	.	.	.	.	.	.	.
=10	=10	=10	=10	=10	=10	=10	=10	=10	=10	=10	=10	=10	=10	=10
!	!	!	!	!	!	!	!	!	!	!	!	!	!	!
8C/L	.	.	2cc 2e 2G/	.	2ee\	.	2c\	Do-	2ee\	Do-	2.ryy	2.ryy	2cc\	2ee\
8C/	.	.	.	.	.	.	.	.	.	.	.	.	.	.
8C/	.	.	.	.	.	.	.	.	.	.	.	.	.	.
8C/	.	.	.	.	.	.	.	.	.	.	.	.	.	.
8C/	.	.	16cc\LL	.	16ee\LL	.	8c\	-mi-	8ee\	-mi-	.	.	4dd\	4ff\
.	.	.	16b\	.	16dd\	.	.	.	.	.	.	.	.	.
8C/J	.	.	16cc\	.	16ee\	.	8c\	-nus	8ff\	-nus	.	.	.	.
.	.	.	16dd\JJ	.	16ff\JJ	.	.	.	.	.	.	.	.	.
=11	=11	=11	=11	=11	=11	=11	=11	=11	=11	=11	=11	=11	=11	=11
8C/L	.	.	16ee\LL	.	4gg\	.	4c\	do-	4gg\	Do-	2.ryy	2.ryy	4ee\	4gg\
.	.	.	16cc\	.	.	.	.	.	.	.	.	.	.	.
8C/	.	.	16g\	.	.	.	.	.	.	.	.	.	.	.
.	.	.	16e\JJ	.	.	.	.	.	.	.	.	.	.	.
8C/	.	.	16c/LL	.	4ccc\	.	4c\	-mi-	4ee\	-mi-	.	.	4aa\	4ccc\
.	.	.	16e/	.	.	.	.	.	.	.	.	.	.	.
8C/	.	.	16g/	.	.	.	.	.	.	.	.	.	.	.
.	.	.	16e/JJ	.	.	.	.	.	.	.	.	.	.	.
8C/	.	.	16c/LL	.	4bb\	.	4c\	-no	8dd\L	-no	.	.	4gg\	4bb\
.	.	.	16f/	.	.	.	.	.	.	.	.	.	.	.
8C/J	.	.	16a/	.	.	.	.	.	8ff\J	.	.	.	.	.
.	.	.	16f/JJ	.	.	.	.	.	.	.	.	.	.	.
*Xtremolo	*	*	*	*	*	*	*	*	*	*	*	*	*	*
=12	=12	=12	=12	=12	=12	=12	=12	=12	=12	=12	=12	=12	=12	=12
8BB/L	.	.	16c/LL	.	4aa\	.	4B\	me-	4aa\	me-	2.ryy	2.ryy	4ff\	4aa\
.	.	.	16e/	.	.	.	.	.	.	.	.	.	.	.
8BB/	.	.	16g/	.	.	.	.	.	.	.	.	.	.	.
.	.	.	16e/JJ	.	.	.	.	.	.	.	.	.	.	.
*	*	*	*rep	*	*	*	*	*	*	*	*	*	*	*
8C/	.	.	16c/LL	.	4gg\	.	4c\	-o	4gg\	-o	.	.	4ee\	4gg\
.	.	.	16e/	.	.	.	.	.	.	.	.	.	.	.
8C/	.	.	16g/	.	.	.	.	.	.	.	.	.	.	.
.	.	.	16e/JJ	.	.	.	.	.	.	.	.	.	.	.
*	*	*	*Xrep	*	*	*	*	*	*	*	*	*	*	*
*	*	*	*rep	*	*	*	*	*	*	*	*	*	*	*
8E/	.	.	16c/LL	.	8r	.	4r	.	4r	.	.	.	4r	4r
.	.	.	16e/	.	.	.	.	.	.	.	.	.	.	.
8C/J	.	.	16g/	.	8ee\	.	.	.	.	.	.	.	.	.
.	.	.	16e/JJ	.	.	.	.	.	.	.	.	.	.	.
*	*	*	*Xrep	*	*	*	*	*	*	*	*	*	*	*
=13	=13	=13	=13	=13	=13	=13	=13	=13	=13	=13	=13	=13	=13	=13
4G\	.	.	16d/LL	.	8gg\L	.	4B\	Se-	8gg\L	Se-	2.ryy	2.ryy	2.r	2.r
.	.	.	16f/	.	.	.	.	.	.	.	.	.	.	.
.	.	.	16g/	.	8ff\J	.	.	.	8ff\J	.	.	.	.	.
.	.	.	16f/JJ	.	.	.	.	.	.	.	.	.	.	.
*	*	*	*rep	*	*	*	*	*	*	*	*	*	*	*
8r	.	.	16d/LL	.	4.dd\	.	4.B\	-de	4.dd\	-de	.	.	.	.
.	.	.	16f/	.	.	.	.	.	.	.	.	.	.	.
8GG/L	.	.	16g/	.	.	.	.	.	.	.	.	.	.	.
.	.	.	16f/JJ	.	.	.	.	.	.	.	.	.	.	.
*	*	*	*Xrep	*	*	*	*	*	*	*	*	*	*	*
*	*	*	*rep	*	*	*	*	*	*	*	*	*	*	*
8BB/	.	.	16d/LL	.	.	.	.	.	.	.	.	.	.	.
.	.	.	16f/	.	.	.	.	.	.	.	.	.	.	.
8GG/J	.	.	16g/	.	8ff\	.	8B\	a	8ff\	a	.	.	.	.
.	.	.	16f/JJ	.	.	.	.	.	.	.	.	.	.	.
*	*	*	*Xrep	*	*	*	*	*	*	*	*	*	*	*
=14	=14	=14	=14	=14	=14	=14	=14	=14	=14	=14	=14	=14	=14	=14
!LO:LB:g=original	!	!	!	!	!	!	!	!	!	!	!	!	!	!
4C/	.	.	16c/LL	.	16ff\LL	.	4c\	dex-	(16ff\LL	de-	2.ryy	2.ryy	2.r	2.r
.	.	.	16e/	.	16ee\	.	.	.	16ee\	.	.	.	.	.
.	.	.	16g/	.	16aa\	.	.	.	16aa\	.	.	.	.	.
.	.	.	16e/JJ	.	16gg\JJ	.	.	.	16gg\JJ)	.	.	.	.	.
*	*	*	*rep	*	*	*	*	*	*	*	*	*	*	*
8r	.	.	16c/LL	.	4.gg\	.	4C/	-tris	4.gg\	-xtris	.	.	.	.
.	.	.	16e/	.	.	.	.	.	.	.	.	.	.	.
8C/L	.	.	16g/	.	.	.	.	.	.	.	.	.	.	.
.	.	.	16e/JJ	.	.	.	.	.	.	.	.	.	.	.
*	*	*	*Xrep	*	*	*	*	*	*	*	*	*	*	*
8E/	.	.	16c/LL	.	.	.	8r	.	.	.	.	.	.	.
.	.	.	16e/	.	.	.	.	.	.	.	.	.	.	.
8C/J	.	.	16g/	.	8ee\	.	8A\	a	8ee\	a-	.	.	.	.
.	.	.	16cc/JJ	.	.	.	.	.	.	.	.	.	.	.
=15	=15	=15	=15	=15	=15	=15	=15	=15	=15	=15	=15	=15	=15	=15
!LO:TX:t=P:problem=mixed beam	!	!	!	!	!	!	!	!	!	!	!	!	!	!
8F\L	.	.	16g/LL	.	16ee\LL	.	8F\	dex-	16ee\LL	-dex-	2.ryy	2.ryy	4dd\	4ff\
.	.	.	16f/	.	16dd\	.	.	.	16dd\JJ	.	.	.	.	.
8F\	.	.	16a/	.	16ff\	.	8D\	-tris	16ff\LL	-tris	.	.	.	.
.	.	.	16f/JJ	.	16dd\JJ	.	.	.	16dd\JJ	.	.	.	.	.
!	!	!	!	!	!	!	!	!	!LO:LB:g=original	!	!	!	!	!
8G\	.	.	4e/	.	4cc\	.	(4G\	me-	(4cc\	me-	.	.	4cc\	4ee\
8G\	.	.	.	.	.	.	.	.	.	.	.	.	.	.
8GG/	.	.	4d/	.	4b\	.	4GG/)	.	4b\)	.	.	.	4g/	4dd\
8GG/J	.	.	.	.	.	.	.	.	.	.	.	.	.	.
=16	=16	=16	=16	=16	=16	=16	=16	=16	=16	=16	=16	=16	=16	=16
4C/	.	.	8e/L	.	8cc\L	.	4C/	-is	4cc\	-is	2.ryy	2.ryy	4e/	4cc\
.	.	.	8d/	.	8b\	.	.	.	.	.	.	.	.	.
4r	.	.	8e/	.	8cc\	.	4r	.	4r	.	.	.	4r	4r
.	.	.	8B/	.	8dd\	.	.	.	.	.	.	.	.	.
4r	.	.	8c/	.	8ee\	.	4r	.	4r	.	.	.	4r	4r
.	.	.	8d/J	.	8ff\J	.	.	.	.	.	.	.	.	.
=17	=17	=17	=17	=17	=17	=17	=17	=17	=17	=17	=17	=17	=17	=17
*tremolo	*	*	*	*	*	*	*	*	*	*	*	*	*	*
!	!	!	!LO:LB:g=original	!	!	!	!LO:LB:g=original	!	!	!	!	!	!	!
8GG/L	.	.	16d/LL	.	8gg\L	.	4B\	Se-	8gg\L	Se-	2.ryy	2.ryy	2.b\	2.dd\
.	.	.	16f/	.	.	.	.	.	.	.	.	.	.	.
8GG/	.	.	16g/	.	8ff\J	.	.	.	8ff\J	.	.	.	.	.
.	.	.	16f/JJ	.	.	.	.	.	.	.	.	.	.	.
*	*	*	*rep	*	*	*	*	*	*	*	*	*	*	*
8GG/	.	.	16d/LL	.	4.dd\	.	4.B\	-de	4.dd\	-de	.	.	.	.
.	.	.	16f/	.	.	.	.	.	.	.	.	.	.	.
8GG/J	.	.	16g/	.	.	.	.	.	.	.	.	.	.	.
.	.	.	16f/JJ	.	.	.	.	.	.	.	.	.	.	.
*Xtremolo	*	*	*Xrep	*	*	*	*	*	*	*	*	*	*	*
*	*	*	*rep	*	*	*	*	*	*	*	*	*	*	*
8BB/L	.	.	16d/LL	.	.	.	.	.	.	.	.	.	.	.
.	.	.	16f/	.	.	.	.	.	.	.	.	.	.	.
8BB/J	.	.	16g/	.	8ff\	.	8B\	a	8ff\	a	.	.	.	.
.	.	.	16f/JJ	.	.	.	.	.	.	.	.	.	.	.
*	*	*	*Xrep	*	*	*	*	*	*	*	*	*	*	*
=18	=18	=18	=18	=18	=18	=18	=18	=18	=18	=18	=18	=18	=18	=18
*tremolo	*	*	*	*	*	*	*	*	*	*	*	*	*	*
8C/L	.	.	16e/LL	.	16ff\LL	.	4c\	dex-	16ff\LL	dex-	2.ryy	2.ryy	2.cc\	2.ee\
.	.	.	16g/	.	16ee\	.	.	.	16ee\	.	.	.	.	.
8C/	.	.	16cc/	.	16aa\	.	.	.	16aa\	.	.	.	.	.
.	.	.	16g/JJ	.	16gg\JJ	.	.	.	16gg\JJ	.	.	.	.	.
*	*	*	*rep	*	*	*	*	*	*	*	*	*	*	*
!	!	!	!	!	!LO:LB:g=original	!	!	!	!	!	!	!	!	!
8C/	.	.	16e/LL	.	4.gg\	.	4C/	-tris	4.gg\	-tris	.	.	.	.
.	.	.	16g/	.	.	.	.	.	.	.	.	.	.	.
8C/J	.	.	16cc/	.	.	.	.	.	.	.	.	.	.	.
.	.	.	16g/JJ	.	.	.	.	.	.	.	.	.	.	.
*Xtremolo	*	*	*Xrep	*	*	*	*	*	*	*	*	*	*	*
*	*	*	*rep	*	*	*	*	*	*	*	*	*	*	*
8E/L	.	.	16e/LL	.	.	.	8r	.	.	.	.	.	.	.
.	.	.	16g/	.	.	.	.	.	.	.	.	.	.	.
8E/J	.	.	16cc/	.	8ee\	.	8A\	a	8ee\	a	.	.	.	.
.	.	.	16g/JJ	.	.	.	.	.	.	.	.	.	.	.
*	*	*	*Xrep	*	*	*	*	*	*	*	*	*	*	*
=19	=19	=19	=19	=19	=19	=19	=19	=19	=19	=19	=19	=19	=19	=19
8F\L	.	.	8a/L	.	8dd\L	.	2F\	dex-	8dd\L	de-	2.ryy	2.ryy	8a\L	8dd\L
8E\	.	.	8g/	.	8ee\	.	.	.	8ee\	.	.	.	8g\	8ee\
8F\	.	.	8a/	.	8ff\	.	.	.	8ff\	.	.	.	8a\	8ff\
8E\	.	.	8cc#X/	.	8gg\	.	.	.	8gg\	.	.	.	8cc#X\	8gg\
8F\	.	.	8dd/	.	8aa\	.	8F\L	-tris	8aa\	.	.	.	8dd\	8aa\
8F#X\J	.	.	8a/J	.	8cc\J	.	8F#X\J	.	8cc\J	-tris	.	.	8a\J	8cc\J
=20	=20	=20	=20	=20	=20	=20	=20	=20	=20	=20	=20	=20	=20	=20
4G\	.	.	4cc 4e 4G/	.	4cc 4e/	.	4G\	me-	4cc\	me-	2.ryy	2.ryy	4e/	4cc\
4GG/	.	.	4b 4d 4G/	.	4b 4d 4G/	.	4GG/	-is	4b\	-is	.	.	4d/	4b\
4r	.	.	4r	.	4r	.	4r	.	4r	.	.	.	4r	4r
=21	=21	=21	=21	=21	=21	=21	=21	=21	=21	=21	=21	=21	=21	=21
*tremolo	*	*	*tremolo	*	*	*	*	*	*	*	*	*	*	*
8G\L	.	.	16bLL 16d/	.	4dd/	.	2B\	do-	2dd\	Do-	2.ryy	2.ryy	4b\	4dd\
.	.	.	16b 16d/	.	.	.	.	.	.	.	.	.	.	.
8G\	.	.	16b 16d/	.	.	.	.	.	.	.	.	.	.	.
.	.	.	16b 16d/	.	.	.	.	.	.	.	.	.	.	.
8G\	.	.	16b 16d/	.	4gg 4b 4d 4G/	.	.	.	.	.	.	.	4.b\	4.gg\
.	.	.	16b 16d/	.	.	.	.	.	.	.	.	.	.	.
8G\	.	.	16b 16d/	.	.	.	.	.	.	.	.	.	.	.
.	.	.	16b 16d/	.	.	.	.	.	.	.	.	.	.	.
8G\	.	.	16b 16d/	.	8r	.	4G\	-nec	4b\	-nec	.	.	.	.
.	.	.	16b 16d/	.	.	.	.	.	.	.	.	.	.	.
8G\J	.	.	16b 16d/	.	8b/	.	.	.	.	.	.	.	8b\	8dd\
.	.	.	16bJJ 16d/	.	.	.	.	.	.	.	.	.	.	.
=22	=22	=22	=22	=22	=22	=22	=22	=22	=22	=22	=22	=22	=22	=22
8F#X\L	.	.	16ccLL 16d/	.	8cc\L	.	4A\	po-	4cc\	po-	2.ryy	2.ryy	4a/	4cc\
.	.	.	16cc 16d/	.	.	.	.	.	.	.	.	.	.	.
8F#\	.	.	16cc 16d/	.	8a\	.	.	.	.	.	.	.	.	.
.	.	.	16cc 16d/	.	.	.	.	.	.	.	.	.	.	.
8F#\	.	.	16cc 16d/	.	8aa\	.	4D/	-nam	4a\	-nam	.	.	4f#X/	4a\
.	.	.	16cc 16d/	.	.	.	.	.	.	.	.	.	.	.
8F#\	.	.	16cc 16d/	.	8ff#X\	.	.	.	.	.	.	.	.	.
.	.	.	16cc 16d/	.	.	.	.	.	.	.	.	.	.	.
8F#\	.	.	16cc 16d/	.	8dd\	.	4r	.	4r	.	.	.	4r	4r
.	.	.	16cc 16d/	.	.	.	.	.	.	.	.	.	.	.
8F#\J	.	.	16cc 16d/	.	8cc\J	.	.	.	.	.	.	.	.	.
.	.	.	16ccJJ 16d/	.	.	.	.	.	.	.	.	.	.	.
=23	=23	=23	=23	=23	=23	=23	=23	=23	=23	=23	=23	=23	=23	=23
!	!	!	!	!	!	!	!	!	!	!	!	!	!LO:LB:g=original	!
8G\L	.	.	16bLL 16d/	.	4b 4d/	.	8B\	i-	8dd\	i-	2.ryy	2.ryy	4b\	4dd\
.	.	.	16b 16d/	.	.	.	.	.	.	.	.	.	.	.
8G\	.	.	16b 16d/	.	.	.	8G\	-ni-	8b\	-ni-	.	.	.	.
.	.	.	16b 16d/	.	.	.	.	.	.	.	.	.	.	.
8G\	.	.	16b 16d/	.	4gg 4b 4d 4G/	.	4.B\	-mi-	4.gg\	-mi-	.	.	4.b\	4.gg\
.	.	.	16b 16d/	.	.	.	.	.	.	.	.	.	.	.
8G\	.	.	16b 16d/	.	.	.	.	.	.	.	.	.	.	.
.	.	.	16b 16d/	.	.	.	.	.	.	.	.	.	.	.
8G\	.	.	16b 16d/	.	8r	.	.	.	.	.	.	.	.	.
.	.	.	16b 16d/	.	.	.	.	.	.	.	.	.	.	.
8G\J	.	.	16b 16d/	.	8b/	.	8G\	-cos	8b\	-cos	.	.	8b\	8dd\
.	.	.	16bJJ 16d/	.	.	.	.	.	.	.	.	.	.	.
=24	=24	=24	=24	=24	=24	=24	=24	=24	=24	=24	=24	=24	=24	=24
!	!	!	!	!	!	!	!	!	!	!	!	!	!	!LO:LB:g=original
!	!	!	!	!	!	!	!	!	!LO:LB:g=original	!	!	!	!	!
8F#X\L	.	.	16ccLL 16d/	.	8cc\L	.	4A\	tu-	4cc\	tu-	2.ryy	2.ryy	4a/	4cc\
.	.	.	16cc 16d/	.	.	.	.	.	.	.	.	.	.	.
8F#\	.	.	16cc 16d/	.	8a\	.	.	.	.	.	.	.	.	.
.	.	.	16cc 16d/	.	.	.	.	.	.	.	.	.	.	.
8F#\	.	.	16cc 16d/	.	8aa\	.	4D/	-os	4a\	-os	.	.	4f#X/	4a\
.	.	.	16cc 16d/	.	.	.	.	.	.	.	.	.	.	.
8F#\	.	.	16cc 16d/	.	8ff#X\	.	.	.	.	.	.	.	.	.
.	.	.	16cc 16d/	.	.	.	.	.	.	.	.	.	.	.
8F#\	.	.	16cc 16d/	.	8dd\	.	8r	.	8r	.	.	.	4r	4r
.	.	.	16cc 16d/	.	.	.	.	.	.	.	.	.	.	.
8F#\J	.	.	16cc 16d/	.	8cc\J	.	8A\	sca-	8cc\	sca-	.	.	.	.
.	.	.	16ccJJ 16d/	.	.	.	.	.	.	.	.	.	.	.
*Xtremolo	*	*	*Xtremolo	*	*	*	*	*	*	*	*	*	*	*
=25	=25	=25	=25	=25	=25	=25	=25	=25	=25	=25	=25	=25	=25	=25
!LO:TX:t=P:problem=mixed beam	!	!	!	!	!	!	!	!	!	!	!	!	!	!
8G\L	.	.	16b/LL	.	4gg 4b 4d 4G/	.	2B\	-be-	2dd\	-bel-	2.ryy	2.ryy	2.b\	2.dd\
.	.	.	16g/	.	.	.	.	.	.	.	.	.	.	.
8BB/J	6 3	.	16d/	.	.	.	.	.	.	.	.	.	.	.
.	.	.	16g/JJ	.	.	.	.	.	.	.	.	.	.	.
*tremolo	*	*	*	*	*	*	*	*	*	*	*	*	*	*
8BB/L	.	.	16B/LL	.	8g/L	.	.	.	.	.	.	.	.	.
.	.	.	16d/	.	.	.	.	.	.	.	.	.	.	.
8BB/	.	.	16g/	.	8b/	.	.	.	.	.	.	.	.	.
.	.	.	16d/JJ	.	.	.	.	.	.	.	.	.	.	.
*	*	*	*rep	*	*	*	*	*	*	*	*	*	*	*
8BB/	.	.	16B/LL	.	8dd/	.	4B\	-lum	4dd\	-lum	.	.	.	.
.	.	.	16d/	.	.	.	.	.	.	.	.	.	.	.
8BB/J	.	.	16g/	.	8gg/J	.	.	.	.	.	.	.	.	.
.	.	.	16d/JJ	.	.	.	.	.	.	.	.	.	.	.
*	*	*	*Xrep	*	*	*	*	*	*	*	*	*	*	*
=26	=26	=26	=26	=26	=26	=26	=26	=26	=26	=26	=26	=26	=26	=26
8C/L	5 3	.	16c/LL	.	4gg 4cc/	.	2c\	pe-	2ee\	pe-	2.ryy	2.ryy	2.cc\	2.ee\
.	.	.	16e/	.	.	.	.	.	.	.	.	.	.	.
8C/	.	.	16g/	.	.	.	.	.	.	.	.	.	.	.
.	.	.	16e/JJ	.	.	.	.	.	.	.	.	.	.	.
*	*	*	*rep	*	*	*	*	*	*	*	*	*	*	*
8C/	.	.	16c/LL	.	8g/L	.	.	.	.	.	.	.	.	.
.	.	.	16e/	.	.	.	.	.	.	.	.	.	.	.
8C/	.	.	16g/	.	8cc/	.	.	.	.	.	.	.	.	.
.	.	.	16e/JJ	.	.	.	.	.	.	.	.	.	.	.
*	*	*	*Xrep	*	*	*	*	*	*	*	*	*	*	*
*	*	*	*rep	*	*	*	*	*	*	*	*	*	*	*
8C/	.	.	16c/LL	.	8ee/	.	4c\	-dum	4ee\	-dum	.	.	.	.
.	.	.	16e/	.	.	.	.	.	.	.	.	.	.	.
8C/J	.	.	16g/	.	8gg/J	.	.	.	.	.	.	.	.	.
.	.	.	16e/JJ	.	.	.	.	.	.	.	.	.	.	.
*	*	*	*Xrep	*	*	*	*	*	*	*	*	*	*	*
=27	=27	=27	=27	=27	=27	=27	=27	=27	=27	=27	=27	=27	=27	=27
!	!	!	!LO:TX:t=P:problem=mixed beam	!	!	!	!	!	!	!	!	!	!	!
!	!	!	!	!	!	!	!LO:LB:g=original	!	!	!	!	!	!	!
8D/L	.	.	8d/L	.	8ff#X\L	.	8d\L	pe-	8ff#X\L	pe-	2.ryy	2.ryy	8dd\L	8ff#X\L
8D/	.	.	8cc\	.	8ee\	.	8c\J	.	8ee\J	.	.	.	8cc\	8ee\
8D/	.	.	8b\	.	8dd\	.	8B\	-dum	8dd\	-dum	.	.	8b\	8dd\
8D/J	.	.	8cc\	.	8ee\	.	8c\	pe-	8ee\	pe-	.	.	8cc\	8ee\
*Xtremolo	*	*	*	*	*	*	*	*	*	*	*	*	*	*
8D#X/L	.	.	8b\	.	8dd\	.	8B\	-du(m)	8.dd\	-dum	.	.	8b\	8dd\
8D#/J	7	.	8a\J	.	8cc\J	.	8A\	tu-	.	.	.	.	8a\J	8cc\J
.	.	.	.	.	.	.	.	.	16cc\	tu-	.	.	.	.
=28	=28	=28	=28	=28	=28	=28	=28	=28	=28	=28	=28	=28	=28	=28
!LO:TX:t=P:problem=mixed beam	!	!	!	!	!	!	!	!	!	!	!	!	!	!
!LO:LB:g=original	!	!	!LO:LB:g=original	!	!LO:LB:g=original	!	!	!	!	!	!	!	!	!
8E\L	5 3	.	4a/	.	4cc\	.	4A\	-o-	4cc\	-o-	2.ryy	2.ryy	4a/	4cc\
8E\	.	.	.	.	.	.	.	.	.	.	.	.	.	.
8EE/	.	.	8g/L	.	8b\L	.	4G\	-rum	4b\	-rum	.	.	8g/L	4b\
8E\	.	.	8b/	.	8dd\	.	.	.	.	.	.	.	8b/	.
8D\	.	.	8cc/	.	8ee\	.	4r	.	4r	.	.	.	8cc/	4r
8C\J	.	.	8a/J	.	8ff#X\J	.	.	.	.	.	.	.	8a/J	.
=29	=29	=29	=29	=29	=29	=29	=29	=29	=29	=29	=29	=29	=29	=29
*tremolo	*	*	*	*	*	*	*	*	*	*	*	*	*	*
8BB/L	.	.	16b/LL	.	4gg 4b 4d/	.	4B\	Sca-	4dd\	Sca-	2.ryy	2.ryy	2.g/	2.dd\
.	.	.	16g/	.	.	.	.	.	.	.	.	.	.	.
8BB/	.	.	16d/	.	.	.	.	.	.	.	.	.	.	.
.	.	.	16g/JJ	.	.	.	.	.	.	.	.	.	.	.
8BB/	.	.	16B/LL	.	8g/L	.	4B\	-bel-	4dd\	-bel-	.	.	.	.
.	.	.	16d/	.	.	.	.	.	.	.	.	.	.	.
8BB/	.	.	16g/	.	8b/	.	.	.	.	.	.	.	.	.
.	.	.	16d/JJ	.	.	.	.	.	.	.	.	.	.	.
*	*	*	*rep	*	*	*	*	*	*	*	*	*	*	*
8BB/	.	.	16B/LL	.	8dd/	.	4B\	-lum	4dd\	-lum	.	.	.	.
.	.	.	16d/	.	.	.	.	.	.	.	.	.	.	.
8BB/J	.	.	16g/	.	8gg/J	.	.	.	.	.	.	.	.	.
.	.	.	16d/JJ	.	.	.	.	.	.	.	.	.	.	.
*	*	*	*Xrep	*	*	*	*	*	*	*	*	*	*	*
=30	=30	=30	=30	=30	=30	=30	=30	=30	=30	=30	=30	=30	=30	=30
8C/L	.	.	16c/LL	.	4gg 4cc/	.	4c\	pe-	4ee\	pe-	2.ryy	2.ryy	2.a/	2.ee\
.	.	.	16e/	.	.	.	.	.	.	.	.	.	.	.
8C/	.	.	16g/	.	.	.	.	.	.	.	.	.	.	.
.	.	.	16e/JJ	.	.	.	.	.	.	.	.	.	.	.
*	*	*	*rep	*	*	*	*	*	*	*	*	*	*	*
8C/	.	.	16c/LL	.	8g/L	.	4c\	-dum	4ee\	-dum	.	.	.	.
.	.	.	16e/	.	.	.	.	.	.	.	.	.	.	.
8C/	.	.	16g/	.	8cc/	.	.	.	.	.	.	.	.	.
.	.	.	16e/JJ	.	.	.	.	.	.	.	.	.	.	.
*	*	*	*Xrep	*	*	*	*	*	*	*	*	*	*	*
*	*	*	*rep	*	*	*	*	*	*	*	*	*	*	*
8C/	.	.	16c/LL	.	8ee/	.	4r	.	4r	.	.	.	.	.
.	.	.	16e/	.	.	.	.	.	.	.	.	.	.	.
8C/J	.	.	16g/	.	8gg/J	.	.	.	.	.	.	.	.	.
.	.	.	16e/JJ	.	.	.	.	.	.	.	.	.	.	.
*	*	*	*Xrep	*	*	*	*	*	*	*	*	*	*	*
=31	=31	=31	=31	=31	=31	=31	=31	=31	=31	=31	=31	=31	=31	=31
!	!	!	!LO:TX:t=P:problem=mixed beam	!	!	!	!	!	!	!	!	!	!	!
!	!	!	!	!	!	!	!	!	!	!	!	!	!LO:TX:t=P:problem=mixed beam	!
8D\L	.	.	8d/L	.	8ff#X\L	.	8d\	sca-	8ff#X\	Sca-	2.ryy	2.ryy	8d/L	8ff#X\L
8D\	.	.	8cc\	.	8ee\	.	8c\	-be-	8ee\	-bel-	.	.	8cc\	8ee\
8D\	.	.	8b\	.	8dd\	.	8B\	-lum	8dd\	-lum	.	.	8b\	8dd\
8D\J	.	.	8e\	.	8cc\	.	8A\	pe-	8cc\	pe-	.	.	8e/	8cc\
*Xtremolo	*	*	*	*	*	*	*	*	*	*	*	*	*	*
8DD/L	.	.	8d\	.	8b\	.	8G\	-du(m)	8b\	-du(m)	.	.	8d/	8b\
8DD/J	.	.	8c\J	.	8a\J	.	8F#X\	tu-	8a\	tu-	.	.	8c/J	8a\J
=32	=32	=32	=32	=32	=32	=32	=32	=32	=32	=32	=32	=32	=32	=32
!	!	!	!	!	!	!	!	!	!LO:LB:g=original	!	!	!	!	!
4GG/	.	.	4d 4B/	.	4g/	.	4G\	-o-	4g\	-o-	2.ryy	2.ryy	4d/	4g/
8G\L	.	.	4d 4B/	.	4G/	.	4GG/	-rum	4g\	-rum	.	.	4d/	4G/
8D\	.	.	.	.	.	.	.	.	.	.	.	.	.	.
8BB\	.	.	4r	.	4r	.	4r	.	4r	.	.	.	4r	4r
8GG\J	.	.	.	.	.	.	.	.	.	.	.	.	.	.
=33	=33	=33	=33	=33	=33	=33	=33	=33	=33	=33	=33	=33	=33	=33
*tremolo	*	*	*	*	*	*	*	*	*	*	*	*	*	*
!	!	!LO:DY:a:t=p.	!	!	!	!	!	!	!	!	!	!	!	!
!	!	!	!	!	!	!LO:DY:b:t=p.	!	!	!	!	!	!	!	!
!	!	!	!	!LO:DY:b:t=p.	!	!	!	!	!	!	!	!	!	!
8F#X\L	.	p	(8c/L	p	4.aa\	p	2.r	.	2.r	.	2.ryy	2.ryy	2.r	2.r
8F#\	.	.	8d/)	.	.	.	.	.	.	.	.	.	.	.
8F#\	.	.	(8c/	.	.	.	.	.	.	.	.	.	.	.
8F#\	.	.	8d/)	.	8aa\L	.	.	.	.	.	.	.	.	.
8F#\	.	.	(8c/	.	8bb\	.	.	.	.	.	.	.	.	.
8F#\J	.	.	8d/J)	.	8ccc\J	.	.	.	.	.	.	.	.	.
=34	=34	=34	=34	=34	=34	=34	=34	=34	=34	=34	=34	=34	=34	=34
8G\L	.	.	(8B/L	.	8ccc\L	.	2.r	.	2.r	.	2.ryy	2.ryy	2.r	2.r
8G\	.	.	8d/J)	.	8bb\J	.	.	.	.	.	.	.	.	.
*	*	*	*rep	*	*	*	*	*	*	*	*	*	*	*
8G\	.	.	(8B/L	.	4.bb\	.	.	.	.	.	.	.	.	.
8G\	.	.	8d/J)	.	.	.	.	.	.	.	.	.	.	.
*	*	*	*Xrep	*	*	*	*	*	*	*	*	*	*	*
*	*	*	*rep	*	*	*	*	*	*	*	*	*	*	*
8G\	.	.	(8B/L	.	.	.	.	.	.	.	.	.	.	.
8G\J	.	.	8d/J)	.	8ddd\	.	.	.	.	.	.	.	.	.
*	*	*	*Xrep	*	*	*	*	*	*	*	*	*	*	*
=35	=35	=35	=35	=35	=35	=35	=35	=35	=35	=35	=35	=35	=35	=35
8A\L	.	.	(8c/L	.	8ddd\L	.	2.r	.	2.r	.	2.ryy	2.ryy	2.r	2.r
8A\	.	.	8d/J)	.	8ff#X\J	.	.	.	.	.	.	.	.	.
*	*	*	*rep	*	*	*	*	*	*	*	*	*	*	*
8A\	.	.	(8c/L	.	4.ff#\	.	.	.	.	.	.	.	.	.
8A\	.	.	8d/J)	.	.	.	.	.	.	.	.	.	.	.
*	*	*	*Xrep	*	*	*	*	*	*	*	*	*	*	*
*	*	*	*rep	*	*	*	*	*	*	*	*	*	*	*
8A\	.	.	(8c/L	.	.	.	.	.	.	.	.	.	.	.
8A\J	.	.	8d/J)	.	8aa\	.	.	.	.	.	.	.	.	.
*	*	*	*Xrep	*	*	*	*	*	*	*	*	*	*	*
=36	=36	=36	=36	=36	=36	=36	=36	=36	=36	=36	=36	=36	=36	=36
8G\L	.	.	(8B/L	.	4aa\	.	2.r	.	2.r	.	2.ryy	2.ryy	2.r	2.r
8G\	.	.	8d/J)	.	.	.	.	.	.	.	.	.	.	.
*	*	*	*rep	*	*	*	*	*	*	*	*	*	*	*
8G\	.	.	(8B/L	.	8gg\L	.	.	.	.	.	.	.	.	.
8G\	.	.	8d/J)	.	8gg\	.	.	.	.	.	.	.	.	.
*	*	*	*Xrep	*	*	*	*	*	*	*	*	*	*	*
*	*	*	*rep	*	*	*	*	*	*	*	*	*	*	*
8G\	.	.	(8B/L	.	8aa\	.	.	.	.	.	.	.	.	.
8G\J	.	.	8d/J)	.	8bb\J	.	.	.	.	.	.	.	.	.
*	*	*	*Xrep	*	*	*	*	*	*	*	*	*	*	*
=37	=37	=37	=37	=37	=37	=37	=37	=37	=37	=37	=37	=37	=37	=37
!	!	!	!LO:LB:g=original	!	!LO:LB:g=original	!	!	!	!	!	!	!	!	!
8F#X\L	.	.	(8c/L	.	4.aa\	.	2.r	.	2.r	.	2.ryy	2.ryy	2.r	2.r
8F#\	.	.	8d/J)	.	.	.	.	.	.	.	.	.	.	.
*	*	*	*rep	*	*	*	*	*	*	*	*	*	*	*
8F#\	.	.	(8c/L	.	.	.	.	.	.	.	.	.	.	.
8F#\	.	.	8d/J)	.	8aa\L	.	.	.	.	.	.	.	.	.
*	*	*	*Xrep	*	*	*	*	*	*	*	*	*	*	*
*	*	*	*rep	*	*	*	*	*	*	*	*	*	*	*
8F#\	.	.	(8c/L	.	8bb\	.	.	.	.	.	.	.	.	.
8F#\J	.	.	8d/J)	.	8ccc\J	.	.	.	.	.	.	.	.	.
*	*	*	*Xrep	*	*	*	*	*	*	*	*	*	*	*
=38	=38	=38	=38	=38	=38	=38	=38	=38	=38	=38	=38	=38	=38	=38
8G\L	.	.	(8B/L	.	8ccc\L	.	2.r	.	2.r	.	2.ryy	2.ryy	2.r	2.r
8G\	.	.	8d/J)	.	8bb\J	.	.	.	.	.	.	.	.	.
*	*	*	*rep	*	*	*	*	*	*	*	*	*	*	*
8G\	.	.	(8B/L	.	4.bb\	.	.	.	.	.	.	.	.	.
8G\	.	.	8d/J)	.	.	.	.	.	.	.	.	.	.	.
*	*	*	*Xrep	*	*	*	*	*	*	*	*	*	*	*
*	*	*	*rep	*	*	*	*	*	*	*	*	*	*	*
8G\	.	.	(8B/L	.	.	.	.	.	.	.	.	.	.	.
8G\J	.	.	8d/J)	.	8ddd\	.	.	.	.	.	.	.	.	.
*	*	*	*Xrep	*	*	*	*	*	*	*	*	*	*	*
=39	=39	=39	=39	=39	=39	=39	=39	=39	=39	=39	=39	=39	=39	=39
8A\L	.	.	(8c/L	.	8ddd\L	.	2.r	.	2.r	.	2.ryy	2.ryy	2.r	2.r
8A\	.	.	8d/J)	.	8ff#X\J	.	.	.	.	.	.	.	.	.
*	*	*	*rep	*	*	*	*	*	*	*	*	*	*	*
8A\	.	.	(8c/L	.	4.ff#\	.	.	.	.	.	.	.	.	.
8A\	.	.	8d/J)	.	.	.	.	.	.	.	.	.	.	.
*	*	*	*Xrep	*	*	*	*	*	*	*	*	*	*	*
*	*	*	*rep	*	*	*	*	*	*	*	*	*	*	*
8A\	.	.	(8c/L	.	.	.	.	.	.	.	.	.	.	.
8A\J	.	.	8d/J)	.	8aa\	.	.	.	.	.	.	.	.	.
*Xtremolo	*	*	*Xrep	*	*	*	*	*	*	*	*	*	*	*
=40	=40	=40	=40	=40	=40	=40	=40	=40	=40	=40	=40	=40	=40	=40
4G\	.	.	8B/L	.	8aa\L	.	2.r	.	2.r	.	2.ryy	2.ryy	2.r	2.r
.	.	.	8d/	.	8gg\	.	.	.	.	.	.	.	.	.
4GG/	.	.	8B/	.	8gg\	.	.	.	.	.	.	.	.	.
.	.	.	8B/	.	8dd\	.	.	.	.	.	.	.	.	.
4r	.	.	8c/	.	8ee\	.	.	.	.	.	.	.	.	.
.	.	.	8A/J	.	8ff#X\J	.	.	.	.	.	.	.	.	.
=41	=41	=41	=41	=41	=41	=41	=41	=41	=41	=41	=41	=41	=41	=41
*tremolo	*	*	*	*	*	*	*	*	*	*	*	*	*	*
8BB/L	.	.	8r	.	4.gg\	.	2.r	.	2.r	.	2.ryy	2.ryy	2.r	2.r
8BB/	.	.	8gL 8B/	.	.	.	.	.	.	.	.	.	.	.
*	*	*	*tremolo	*	*	*	*	*	*	*	*	*	*	*
!	!	!	!LO:TX:t=P:problem=błędne wyświetlanie grupy	!	!	!	!	!	!	!	!	!	!	!
8BB/	.	.	8g 8B/	.	.	.	.	.	.	.	.	.	.	.
8BB/	.	.	8g 8B/	.	8bb\L	.	.	.	.	.	.	.	.	.
8BB/	.	.	8g 8B/	.	8gg\	.	.	.	.	.	.	.	.	.
8BB/J	.	.	8gJ 8B/	.	8dd\J	.	.	.	.	.	.	.	.	.
*	*	*	*Xtremolo	*	*	*	*	*	*	*	*	*	*	*
=42	=42	=42	=42	=42	=42	=42	=42	=42	=42	=42	=42	=42	=42	=42
8C/L	.	.	8r	.	4.ee\	.	2.r	.	2.r	.	2.ryy	2.ryy	2.r	2.r
8C/	.	.	8gL 8c/	.	.	.	.	.	.	.	.	.	.	.
*	*	*	*tremolo	*	*	*	*	*	*	*	*	*	*	*
!	!	!	!LO:TX:t=P:problem=błędne wyświetlanie grupy	!	!	!	!	!	!	!	!	!	!	!
8C/	.	.	8g 8c/	.	.	.	.	.	.	.	.	.	.	.
8C/	.	.	8g 8c/	.	8gg\L	.	.	.	.	.	.	.	.	.
8C/	.	.	8g 8c/	.	8ee\	.	.	.	.	.	.	.	.	.
8C/J	.	.	8gJ 8c/	.	8cc\J	.	.	.	.	.	.	.	.	.
*	*	*	*Xtremolo	*	*	*	*	*	*	*	*	*	*	*
=43	=43	=43	=43	=43	=43	=43	=43	=43	=43	=43	=43	=43	=43	=43
8D\L	.	.	8d/L	.	8b\L	.	2.r	.	2.r	.	2.ryy	2.ryy	2.r	2.r
8D\	.	.	8g/	.	8dd\	.	.	.	.	.	.	.	.	.
8D\	.	.	8d/	.	8b\	.	.	.	.	.	.	.	.	.
8D\	.	.	8B/	.	8g\	.	.	.	.	.	.	.	.	.
8D\	.	.	8c/	.	8e\	.	.	.	.	.	.	.	.	.
8D\J	.	.	8A/J	.	8f#X\J	.	.	.	.	.	.	.	.	.
*Xtremolo	*	*	*	*	*	*	*	*	*	*	*	*	*	*
=44	=44	=44	=44	=44	=44	=44	=44	=44	=44	=44	=44	=44	=44	=44
!	!	!	!LO:TX:t=P:problem=takty 44-46 zapisane repetycją	!	!	!	!	!	!	!	!	!	!	!
8GG/L	.	.	8r	.	4.g/	.	2.r	.	2.r	.	2.ryy	2.ryy	2.r	2.r
8BB/	.	.	8gL 8B/	.	.	.	.	.	.	.	.	.	.	.
*tremolo	*	*	*tremolo	*	*	*	*	*	*	*	*	*	*	*
!LO:TX:t=P:problem=błędne wyświetlanie grupy	!	!	!LO:TX:t=P:problem=błędne wyświetlanie grupy	!	!	!	!	!	!	!	!	!	!	!
8BB/	.	.	8g 8B/	.	.	.	.	.	.	.	.	.	.	.
8BB/	.	.	8g 8B/	.	8bb\L	.	.	.	.	.	.	.	.	.
8BB/	.	.	8g 8B/	.	8gg\	.	.	.	.	.	.	.	.	.
8BB/J	.	.	8gJ 8B/	.	8dd\J	.	.	.	.	.	.	.	.	.
*Xtremolo	*	*	*Xtremolo	*	*	*	*	*	*	*	*	*	*	*
=45	=45	=45	=45	=45	=45	=45	=45	=45	=45	=45	=45	=45	=45	=45
*tremolo	*	*	*	*	*	*	*	*	*	*	*	*	*	*
8C/L	.	.	8r	.	4.ee\	.	2.r	.	2.r	.	2.ryy	2.ryy	2.r	2.r
8C/	.	.	8gL 8c/	.	.	.	.	.	.	.	.	.	.	.
*	*	*	*tremolo	*	*	*	*	*	*	*	*	*	*	*
!	!	!	!LO:TX:t=P:problem=błędne wyświetlanie grupy	!	!	!	!	!	!	!	!	!	!	!
8C/	.	.	8g 8c/	.	.	.	.	.	.	.	.	.	.	.
8C/	.	.	8g 8c/	.	8gg\L	.	.	.	.	.	.	.	.	.
8C/	.	.	8g 8c/	.	8ee\	.	.	.	.	.	.	.	.	.
8C/J	.	.	8gJ 8c/	.	8cc\J	.	.	.	.	.	.	.	.	.
*	*	*	*Xtremolo	*	*	*	*	*	*	*	*	*	*	*
=46	=46	=46	=46	=46	=46	=46	=46	=46	=46	=46	=46	=46	=46	=46
!LO:LB:g=original	!	!	!	!	!LO:LB:g=original	!	!	!	!	!	!	!	!	!
8D\L	.	.	8d/L	.	8b\L	.	2.r	.	2.r	.	2.ryy	2.ryy	2.r	2.r
8D\	.	.	8g/	.	8dd\	.	.	.	.	.	.	.	.	.
8D\	.	.	8d/	.	8b\	.	.	.	.	.	.	.	.	.
8D\J	.	.	8B/	.	8g\	.	.	.	.	.	.	.	.	.
*Xtremolo	*	*	*	*	*	*	*	*	*	*	*	*	*	*
8DD/L	.	.	8c/	.	8e\	.	.	.	.	.	.	.	.	.
8DD/J	.	.	8A/J	.	8f#X\J	.	.	.	.	.	.	.	.	.
=47	=47	=47	=47	=47	=47	=47	=47	=47	=47	=47	=47	=47	=47	=47
*tremolo	*	*	*	*	*	*	*	*	*	*	*	*	*	*
!	!	!LO:DY:a:t=f.	!	!LO:DY:a:t=for	!	!LO:DY:a:t=for	!	!	!	!	!	!	!	!
8GG/L	.	f	2B/	f	2g/	f	2G\	Vir-	2g\	Vir-	2.ryy	2.ryy	2B/	2g/
8GG/	.	.	.	.	.	.	.	.	.	.	.	.	.	.
8GG/	.	.	.	.	.	.	.	.	.	.	.	.	.	.
8GG/	.	.	.	.	.	.	.	.	.	.	.	.	.	.
8GG/	.	.	16B/LL	.	16g/LL	.	4G\	-ga(m)	8g\L	-gam	.	.	4f#X/	4a/
.	.	.	16d/	.	16f#X/	.	.	.	.	.	.	.	.	.
8GG/J	.	.	16e/	.	16g/	.	.	.	8a\J	.	.	.	.	.
.	.	.	16f#X/JJ	.	16a/JJ	.	.	.	.	.	.	.	.	.
=48	=48	=48	=48	=48	=48	=48	=48	=48	=48	=48	=48	=48	=48	=48
*	*	*	*	*	*	*	*	*	*	*ij	*	*	*	*
8GG/L	.	.	2g 2B/	.	2b/	.	2G\	Vir-	2b\	Vir-	2.ryy	2.ryy	2g/	2b\
8GG/	.	.	.	.	.	.	.	.	.	.	.	.	.	.
8GG/	.	.	.	.	.	.	.	.	.	.	.	.	.	.
8GG/	.	.	.	.	.	.	.	.	.	.	.	.	.	.
8GG/	.	.	16g/LL	.	16b/LL	.	8G\L	-gam	8b\L	-gam	.	.	4a/	4cc\
*	*	*	*	*	*	*	*	*	*	*Xij	*	*	*	*
.	.	.	16f#X/	.	16a/	.	.	.	.	.	.	.	.	.
8GG/J	.	.	16g/	.	16b/	.	8A\J	.	8cc\J	.	.	.	.	.
.	.	.	16a/JJ	.	16cc/JJ	.	.	.	.	.	.	.	.	.
=49	=49	=49	=49	=49	=49	=49	=49	=49	=49	=49	=49	=49	=49	=49
!	!	!	!	!	!	!	!LO:LB:g=original	!	!	!	!	!	!	!
8GG/L	.	.	16b/LL	.	4dd\	.	4B\	vir-	4dd\	vir-	2.ryy	2.ryy	4b\	4dd\
.	.	.	16g/	.	.	.	.	.	.	.	.	.	.	.
8GG/	.	.	16d/	.	.	.	.	.	.	.	.	.	.	.
.	.	.	16B/JJ	.	.	.	.	.	.	.	.	.	.	.
8GG/	.	.	16G/LL	.	4gg\	.	4B\	-tu-	4gg\	-tu-	.	.	4ee\	4gg\
.	.	.	16B/	.	.	.	.	.	.	.	.	.	.	.
8GG/	.	.	16d/	.	.	.	.	.	.	.	.	.	.	.
.	.	.	16B/JJ	.	.	.	.	.	.	.	.	.	.	.
!	!	!	!LO:LB:g=original	!	!	!	!	!	!	!	!	!	!	!
8GG/	.	.	16G/LL	.	4ff#X\	.	8c\L	-tis	4ff#X\	-tis	.	.	4dd\	4ff#X\
.	.	.	16c/	.	.	.	.	.	.	.	.	.	.	.
8GG/J	.	.	16e/	.	.	.	8A\J	.	.	.	.	.	.	.
.	.	.	16c/JJ	.	.	.	.	.	.	.	.	.	.	.
*Xtremolo	*	*	*	*	*	*	*	*	*	*	*	*	*	*
=50	=50	=50	=50	=50	=50	=50	=50	=50	=50	=50	=50	=50	=50	=50
8FF#X/L	7 5	.	16G/LL	.	4ee\	.	4F#X\	tu-	4ee\	tu-	2.ryy	2.ryy	4cc\	4ee\
.	.	.	16c/	.	.	.	.	.	.	.	.	.	.	.
8FF#/	.	.	16e/	.	.	.	.	.	.	.	.	.	.	.
.	.	.	16c/JJ	.	.	.	.	.	.	.	.	.	.	.
8GG/	.	.	16G/LL	.	4dd\	.	4G\	-e	4dd\	-e	.	.	4b\	4dd\
.	.	.	16B/	.	.	.	.	.	.	.	.	.	.	.
8GG/	.	.	16d/	.	.	.	.	.	.	.	.	.	.	.
.	.	.	16B/JJ	.	.	.	.	.	.	.	.	.	.	.
*	*	*	*rep	*	*	*	*	*	*	*	*	*	*	*
8BB/	.	.	16G/LL	.	8r	.	8r	.	8r	.	.	.	4r	4r
.	.	.	16B/	.	.	.	.	.	.	.	.	.	.	.
8GG/J	.	.	16d/	.	8b\	.	8B\	e-	8b\	e-	.	.	.	.
.	.	.	16B/JJ	.	.	.	.	.	.	.	.	.	.	.
*	*	*	*Xrep	*	*	*	*	*	*	*	*	*	*	*
=51	=51	=51	=51	=51	=51	=51	=51	=51	=51	=51	=51	=51	=51	=51
*tremolo	*	*	*	*	*	*	*	*	*	*	*	*	*	*
!LO:TX:t=P:problem=błędne wyświetlanie grupy	!	!	!	!	!	!	!	!	!	!	!	!	!	!
8D\L	.	.	16A/LL	.	8dd\L	.	8B\L	-mit-	8dd\L	-mit-	2.ryy	2.ryy	2.r	2.r
.	.	.	16c/	.	.	.	.	.	.	.	.	.	.	.
8D\	.	.	16d/	.	8cc\J	.	8A\J	.	8cc\J	.	.	.	.	.
.	.	.	16c/JJ	.	.	.	.	.	.	.	.	.	.	.
*	*	*	*rep	*	*	*	*	*	*	*	*	*	*	*
8D\	.	.	16A/LL	.	4.a\	.	(4.F#X\	-tet	(4..a\	-tet	.	.	.	.
.	.	.	16c/	.	.	.	.	.	.	.	.	.	.	.
8D\	.	.	16d/	.	.	.	.	.	.	.	.	.	.	.
.	.	.	16c/JJ	.	.	.	.	.	.	.	.	.	.	.
*Xtremolo	*	*	*Xrep	*	*	*	*	*	*	*	*	*	*	*
*	*	*	*rep	*	*	*	*	*	*	*	*	*	*	*
8F\	.	.	16A/LL	.	.	.	.	.	.	.	.	.	.	.
.	.	.	16c/	.	.	.	.	.	.	.	.	.	.	.
8D\J	.	.	16d/	.	8cc\	.	8G\)	.	.	.	.	.	.	.
.	.	.	16c/JJ	.	.	.	.	.	16b\)	.	.	.	.	.
*	*	*	*Xrep	*	*	*	*	*	*	*	*	*	*	*
=52	=52	=52	=52	=52	=52	=52	=52	=52	=52	=52	=52	=52	=52	=52
*tremolo	*	*	*	*	*	*	*	*	*	*	*	*	*	*
!LO:TX:t=P:problem=błędne wyświetlanie grupy	!	!	!	!	!	!	!	!	!	!	!	!	!	!
8G\L	.	.	16G/LL	.	16cc\LL	.	16A\LL	Do-	(16cc\LL	do-	2.ryy	2.ryy	2.r	2.r
.	.	.	16B/	.	16b\	.	16G\	.	16b\	.	.	.	.	.
8G\	.	.	16d/	.	16ee\	.	16c\	-mi-	16ee\)	-mi-	.	.	.	.
.	.	.	16B/JJ	.	16dd\JJ	.	16B\JJ	.	16dd|\JJ	.	.	.	.	.
*	*	*	*rep	*	*	*	*	*	*	*	*	*	*	*
8G\	.	.	16G/LL	.	4.dd\	.	4B\	-nus	4dd\	-nus	.	.	.	.
.	.	.	16B/	.	.	.	.	.	.	.	.	.	.	.
8G\	.	.	16d/	.	.	.	.	.	.	.	.	.	.	.
.	.	.	16B/JJ	.	.	.	.	.	.	.	.	.	.	.
*Xtremolo	*	*	*Xrep	*	*	*	*	*	*	*	*	*	*	*
*	*	*	*rep	*	*	*	*	*	*	*	*	*	*	*
8B\	.	.	16G/LL	.	.	.	4r	.	4r	.	.	.	.	.
.	.	.	16B/	.	.	.	.	.	.	.	.	.	.	.
8G\J	.	.	16d/	.	8b\	.	.	.	.	.	.	.	.	.
.	.	.	16B/JJ	.	.	.	.	.	.	.	.	.	.	.
*	*	*	*Xrep	*	*	*	*	*	*	*	*	*	*	*
=53	=53	=53	=53	=53	=53	=53	=53	=53	=53	=53	=53	=53	=53	=53
!LO:TX:t=P:problem=mixed beam	!	!	!	!	!	!	!	!	!	!	!	!	!	!
!	!	!	!	!	!	!	!	!	!	!	!	!	!LO:LB:g=original	!
8c\L	.	.	16d/LL	.	16b\LL	.	8A\L	ex	16b\LL	ex	2.ryy	2.ryy	4cc\	4ee\
.	.	.	16c/	.	16a\	.	.	.	(16a\	.	.	.	.	.
8c\	.	.	16e/	.	16cc\	.	8c\J	.	16cc\)	.	.	.	.	.
.	.	.	16c/JJ	.	16a\JJ	.	.	.	16a\JJ	.	.	.	.	.
8d\	.	.	4B/	.	4g/	.	(4d\	si-	4g\	Si-	.	.	4g/	4b\
8d\	.	.	.	.	.	.	.	.	.	.	.	.	.	.
8D/	.	.	4A/	.	4f#X/	.	4D/)	.	4f#X\	.	.	.	4a/	4cc\
8D/J	.	.	.	.	.	.	.	.	.	.	.	.	.	.
=54	=54	=54	=54	=54	=54	=54	=54	=54	=54	=54	=54	=54	=54	=54
!	!	!	!	!	!	!	!	!	!	!	!	!	!	!LO:LB:g=original
4G\	.	.	8B/L	.	8g/L	.	4G\	-on	4g\	-on	2.ryy	2.ryy	4g/	4b\
.	.	.	8A/	.	8f/	.	.	.	.	.	.	.	.	.
4GG/	.	.	8B/	.	8g/	.	4r	.	4r	.	.	.	4g/	4b\
.	.	.	8f#X/	.	8a/	.	.	.	.	.	.	.	.	.
!	!	!	!	!	!	!	!	!	!LO:LB:g=original	!	!	!	!	!
4r	.	.	8g/	.	8b/	.	8r	.	8r	.	.	.	4r	4r
.	.	.	8a/J	.	8cc/J	.	8A\	e-	8cc\	e-	.	.	.	.
=55	=55	=55	=55	=55	=55	=55	=55	=55	=55	=55	=55	=55	=55	=55
*tremolo	*	*	*	*	*	*	*	*	*	*	*	*	*	*
!LO:TX:t=P:problem=błędne wyświetlanie grupy	!	!	!	!	!LO:LB:g=original	!	!	!	!	!	!	!	!	!
8D\L	.	.	16d/LL	.	8dd\L	.	8B\L	-mit-	8dd\L	-mit-	2.ryy	2.ryy	2.r	2.r
.	.	.	16f#X/	.	.	.	.	.	.	.	.	.	.	.
8D\	.	.	16a/	.	8cc\J	.	8A\J	.	8cc\J	.	.	.	.	.
.	.	.	16f#/JJ	.	.	.	.	.	.	.	.	.	.	.
*	*	*	*rep	*	*	*	*	*	*	*	*	*	*	*
8D\	.	.	16d/LL	.	4.a\	.	(4.F#X\	-tet	(4.a\	-tet	.	.	.	.
.	.	.	16f#/	.	.	.	.	.	.	.	.	.	.	.
8D\	.	.	16a/	.	.	.	.	.	.	.	.	.	.	.
.	.	.	16f#/JJ	.	.	.	.	.	.	.	.	.	.	.
*Xtremolo	*	*	*Xrep	*	*	*	*	*	*	*	*	*	*	*
*	*	*	*rep	*	*	*	*	*	*	*	*	*	*	*
8F#X\	.	.	16d/LL	.	.	.	.	.	.	.	.	.	.	.
.	.	.	16f#/	.	.	.	.	.	.	.	.	.	.	.
8F#\J	.	.	16a/	.	8cc\	.	8G\)	.	8b\)	.	.	.	.	.
.	.	.	16f#/JJ	.	.	.	.	.	.	.	.	.	.	.
*	*	*	*Xrep	*	*	*	*	*	*	*	*	*	*	*
=56	=56	=56	=56	=56	=56	=56	=56	=56	=56	=56	=56	=56	=56	=56
*tremolo	*	*	*	*	*	*	*	*	*	*	*	*	*	*
!LO:TX:t=P:problem=błędne wyświetlanie grupy	!	!	!	!	!	!	!	!	!	!	!	!	!	!
8G\L	.	.	16d/LL	.	16cc\LL	.	16A\LL	Do-	(16cc\LL	Do-	2.ryy	2.ryy	2.r	2.r
.	.	.	16g/	.	16b\	.	16G\	.	16b\	.	.	.	.	.
8G\	.	.	16b/	.	16ee\	.	16c\	-mi-	16ee\)	-mi-	.	.	.	.
.	.	.	16g/JJ	.	16dd\JJ	.	16B\JJ	.	16dd|\JJ	.	.	.	.	.
*	*	*	*rep	*	*	*	*	*	*	*	*	*	*	*
8G\	.	.	16d/LL	.	4.dd\	.	4B\	-nus	4dd\	-nus	.	.	.	.
.	.	.	16g/	.	.	.	.	.	.	.	.	.	.	.
8G\	.	.	16b/	.	.	.	.	.	.	.	.	.	.	.
.	.	.	16g/JJ	.	.	.	.	.	.	.	.	.	.	.
*Xtremolo	*	*	*Xrep	*	*	*	*	*	*	*	*	*	*	*
*	*	*	*rep	*	*	*	*	*	*	*	*	*	*	*
8B\	.	.	16d/LL	.	.	.	4r	.	4r	.	.	.	.	.
.	.	.	16g/	.	.	.	.	.	.	.	.	.	.	.
8B\J	.	.	16b/	.	8b\	.	.	.	.	.	.	.	.	.
.	.	.	16g/JJ	.	.	.	.	.	.	.	.	.	.	.
*	*	*	*Xrep	*	*	*	*	*	*	*	*	*	*	*
=57	=57	=57	=57	=57	=57	=57	=57	=57	=57	=57	=57	=57	=57	=57
!	!	!	!LO:LB:g=original	!	!	!	!	!	!	!	!	!	!	!
8c\L	.	.	8e/L	.	8a\L	.	8c\L	Do-	8a\L	Do-	2.ryy	2.ryy	2.r	2.r
8G#X\	.	.	8d/	.	8b\	.	8G#X\J	.	8b\J	.	.	.	.	.
8A\	.	.	8e/	.	8cc\	.	8A\L	-mi-	8cc\L	-mi-	.	.	.	.
8B\	.	.	8B/	.	8dd\J	.	8B\J	.	8dd\J	.	.	.	.	.
8c\	.	.	8c/	.	16ee\LL	.	8c\	-nus	8ee\	-nus	.	.	.	.
.	.	.	.	.	16cc\	.	.	.	.	.	.	.	.	.
8c#X\J	.	.	8e/J	.	16a\	.	8c#X\	ex	8g/	ex	.	.	.	.
.	.	.	.	.	16g\JJ	.	.	.	.	.	.	.	.	.
=58	=58	=58	=58	=58	=58	=58	=58	=58	=58	=58	=58	=58	=58	=58
4d\	.	.	4B/	.	4g/	.	4d\	Si-	4g/	si-	2.ryy	2.ryy	4b\	4gg\
4D/	.	.	4A/	.	4f#X/	.	4D/	-on	4f#X/	-on	.	.	4a\	4ff#X\
4r	.	.	4r	.	4r	.	4r	.	4r	.	.	.	4r	4r
=59	=59	=59	=59	=59	=59	=59	=59	=59	=59	=59	=59	=59	=59	=59
!LO:TX:t=P:problem=mixed beam	!	!	!	!	!	!	!	!	!	!	!	!	!	!
!	!	!	!	!	!	!LO:DY:b:t=p.	!	!	!	!	!	!	!	!
8EE/L	.	.	2b\	.	2dd\	p	2B\	Do-	2dd\	Do-	2.ryy	2.ryy	2.r	2.r
8E\J	.	.	.	.	.	.	.	.	.	.	.	.	.	.
*tremolo	*	*	*	*	*	*	*	*	*	*	*	*	*	*
8E\L	.	.	.	.	.	.	.	.	.	.	.	.	.	.
8E\	.	.	.	.	.	.	.	.	.	.	.	.	.	.
!	!	!	!	!LO:DY:a:t=p.	!	!	!	!	!	!	!	!	!	!
8E\	.	.	4a\	p	4cc\	.	4A\	-mi-	4cc\	-mi-	.	.	.	.
8E\J	.	.	.	.	.	.	.	.	.	.	.	.	.	.
=60	=60	=60	=60	=60	=60	=60	=60	=60	=60	=60	=60	=60	=60	=60
!LO:TX:t=P:problem=błędne wyświetlanie grupy	!	!	!	!	!	!	!	!	!	!	!	!	!	!
!LO:LB:g=original	!	!	!	!	!	!	!	!	!	!	!	!	!	!
8E\L	.	.	8a/L	.	8cc\L	.	8A\L	-na-	(8cc\L	-na-	2.ryy	2.ryy	2.r	2.r
8E\	.	.	8g#X/	.	8b\	.	8G#X\J	.	8b\J)	.	.	.	.	.
8E\	.	.	8g#/	.	8b\	.	4G#\	-re	4b\	-re	.	.	.	.
8E\	.	.	8b/	.	8dd\	.	.	.	.	.	.	.	.	.
*Xtremolo	*	*	*	*	*	*	*	*	*	*	*	*	*	*
8E\	.	.	8cc/	.	8ee\	.	8r	.	8r	.	.	.	.	.
8G#X\J	.	.	8dd/J	.	8ffn\J	.	8d\	in	8ffn\	in	.	.	.	.
=61	=61	=61	=61	=61	=61	=61	=61	=61	=61	=61	=61	=61	=61	=61
4A\	.	.	8.cc/L	.	8.ee\L	.	8.c\	me-	8.ee\	me-	2.ryy	2.ryy	2.r	2.r
.	.	.	16b/K	.	16dd\K	.	16B\	-di-	16dd\	-di-	.	.	.	.
8r	.	.	8a/	.	8cc\	.	8A\	-o	8cc\	-o	.	.	.	.
8E\L	.	.	8dd/	.	8ff\	.	8d\	i-	8ff\	i-	.	.	.	.
8F\	.	.	8cc/	.	8ee\	.	8c\	-ni-	8ee\	-ni-	.	.	.	.
8G#X\J	.	.	8b/J	.	8gg#X\J	.	8B\	-mi-	8dd\	-mi-	.	.	.	.
=62	=62	=62	=62	=62	=62	=62	=62	=62	=62	=62	=62	=62	=62	=62
!	!	!	!	!	!	!	!	!	!LO:LB:g=original	!	!	!	!	!
4A\	.	.	8cc\L	.	8aa\L	.	8.A\L	-co-	8.cc\L	-co-	2.ryy	2.ryy	2.r	2.r
.	.	.	16a\L	.	16ee\L	.	.	.	.	.	.	.	.	.
.	.	.	16e\JJ	.	16cc\JJ	.	16G#X\Jk	.	16b\Jk	.	.	.	.	.
!	!	!	!LO:TX:t=P:problem=mixed beam	!	!	!	!	!	!	!	!	!	!	!
8r	.	.	8c/L	.	8a\L	.	8A\	-rum	8a\	-rum	.	.	.	.
8E\L	.	.	8dd\	.	8ff\	.	8d\	i-	8ff\	i-	.	.	.	.
8F\	.	.	8cc\	.	8ee\	.	8c\	-ni-	8ee\	-ni-	.	.	.	.
8G#X\J	.	.	8b\J	.	8gg#X\J	.	8B\	-mi-	8dd\	-mi-	.	.	.	.
=63	=63	=63	=63	=63	=63	=63	=63	=63	=63	=63	=63	=63	=63	=63
8A\L	.	.	8cc\L	.	8aa\L	.	16A\LL	-co-	16dd\LL	-co-	2.ryy	2.ryy	2.r	2.r
.	.	.	.	.	.	.	16B\JJ	.	16cc\JJ	.	.	.	.	.
!	!	!	!	!	!	!	!LO:LB:g=original	!	!	!	!	!	!	!
8D\J	.	.	16a\L	.	16ee\L	.	16c\	-rum	16b\	-rum	.	.	.	.
.	.	.	16e\JJ	.	16cc\JJ	.	16d\	tu-	16a\	tu-	.	.	.	.
4E\	.	.	8d/L	.	8dd\L	.	(4e\	-o-	(4cc\	-o-	.	.	.	.
.	.	.	8B/	.	8ff\	.	.	.	.	.	.	.	.	.
4EE/	.	.	8e/	.	8ee\	.	4E\)	.	4b\)	.	.	.	.	.
.	.	.	8e/J	.	8g#X\J	.	.	.	.	.	.	.	.	.
=64	=64	=64	=64	=64	=64	=64	=64	=64	=64	=64	=64	=64	=64	=64
!	!	!	!	!LO:DY:a:t=for	!	!	!	!	!	!	!	!	!	!
!	!	!	!	!	!LO:LB:g=original	!	!	!	!	!	!	!	!	!
!	!	!	!	!	!	!LO:DY:a:t=for	!	!	!	!	!	!	!	!
4AA/	.	.	8A/L	f	8a\L	f	4A\	-rum	4a\	-rum	2.ryy	2.ryy	2.r	2.r
.	.	.	16B/L	.	16b\L	.	.	.	.	.	.	.	.	.
.	.	.	16c/JJ	.	16cc\JJ	.	.	.	.	.	.	.	.	.
8A\L	.	.	16d/LL	.	16dd\LL	.	4r	.	4r	.	.	.	.	.
.	.	.	16e/	.	16ee\	.	.	.	.	.	.	.	.	.
8Gn\	.	.	16f#X/	.	16ff#X\	.	.	.	.	.	.	.	.	.
.	.	.	16g#X/JJ	.	16gg#X\JJ	.	.	.	.	.	.	.	.	.
8F#X\	.	.	4a/	.	4aa\	.	4r	.	4r	.	.	.	.	.
8E\J	.	.	.	.	.	.	.	.	.	.	.	.	.	.
=65	=65	=65	=65	=65	=65	=65	=65	=65	=65	=65	=65	=65	=65	=65
*tremolo	*	*	*	*	*	*	*	*	*	*	*	*	*	*
!	!	!	!	!	!	!LO:DY:b:t=p.	!	!	!	!	!	!	!	!
!	!	!	!	!LO:DY:b:t=p.	!	!	!	!	!	!	!	!	!	!
8D\L	.	.	2a/	p	2cc\	p	2A\	Do-	2cc\	Do-	2.ryy	2.ryy	2.r	2.r
8D\	.	.	.	.	.	.	.	.	.	.	.	.	.	.
8D\	.	.	.	.	.	.	.	.	.	.	.	.	.	.
8D\	.	.	.	.	.	.	.	.	.	.	.	.	.	.
8D\	.	.	4gn/	.	4b\	.	4G\	-mi-	4b\	-mi-	.	.	.	.
8D\J	.	.	.	.	.	.	.	.	.	.	.	.	.	.
=66	=66	=66	=66	=66	=66	=66	=66	=66	=66	=66	=66	=66	=66	=66
!LO:TX:t=P:problem=błędne wyświetlanie grupy	!	!	!	!	!	!	!	!	!	!	!	!	!	!
8D\L	.	.	8g/L	.	8b\L	.	8G\L	-na-	8b\L	-na-	2.ryy	2.ryy	2.r	2.r
8D\	.	.	8f#X/	.	8a\	.	8F#X\J	.	8a\J	.	.	.	.	.
8D\	.	.	8f#/	.	8a\	.	4F#\	-re	4a\	-re	.	.	.	.
8D\	.	.	8a/	.	8cc\	.	.	.	.	.	.	.	.	.
*Xtremolo	*	*	*	*	*	*	*	*	*	*	*	*	*	*
8D\	.	.	8b/	.	8dd\	.	8r	.	8r	.	.	.	.	.
8F#X\J	.	.	8cc/J	.	8ee\J	.	8c\	in	8ee\	in	.	.	.	.
=67	=67	=67	=67	=67	=67	=67	=67	=67	=67	=67	=67	=67	=67	=67
!	!	!	!LO:LB:g=original	!	!	!	!	!	!	!	!	!	!	!
4G\	.	.	8.b/L	.	8.dd\L	.	8.B\	me-	8.dd\	me-	2.ryy	2.ryy	2.r	2.r
.	.	.	16a/K	.	16cc\K	.	16A\	-di-	16cc\	-di-	.	.	.	.
8r	.	.	8g/	.	8b\	.	8G\	-o	8b\	-o	.	.	.	.
8D\L	.	.	8cc/	.	8ee\	.	8c\	i-	8ee\	i-	.	.	.	.
8E\	.	.	8b/	.	8dd\	.	8B\	-ni-	8dd\	-ni-	.	.	.	.
8F#X\J	.	.	8a/J	.	8ff#X\J	.	8A\	-mi-	8cc\	-mi-	.	.	.	.
=68	=68	=68	=68	=68	=68	=68	=68	=68	=68	=68	=68	=68	=68	=68
4G\	.	.	8b\L	.	8gg\L	.	8.G\L	-co-	8.b\L	-co-	2.ryy	2.ryy	2.r	2.r
.	.	.	16b\L	.	16dd\L	.	.	.	.	.	.	.	.	.
.	.	.	16g\JJ	.	16b\JJ	.	16D\Jk	.	16a\Jk	.	.	.	.	.
8r	.	.	8g\L	.	8g\L	.	8B\	-rum	8g\	-rum	.	.	.	.
!	!	!	!	!	!	!	!	!	!LO:LB:g=original	!	!	!	!	!
8D\L	.	.	8cc\	.	8ee\	.	8c\	i-	8ee\	i-	.	.	.	.
8E\	.	.	8b\	.	8dd\	.	8B\	-ni-	8dd\	-ni-	.	.	.	.
8F#X\J	.	.	8a\J	.	8ff#X\J	.	8A\	-mi-	8cc\	-mi-	.	.	.	.
=69	=69	=69	=69	=69	=69	=69	=69	=69	=69	=69	=69	=69	=69	=69
8G\L	.	.	8b\L	.	8gg\L	.	16G\LL	-co-	16cc\LL	-co-	2.ryy	2.ryy	2.r	2.r
.	.	.	.	.	.	.	16A\JJ	.	16b\JJ	.	.	.	.	.
8C\J	.	.	16b\L	.	16dd\L	.	16B\	-ru(m)	16a\	-rum	.	.	.	.
.	.	.	16g\JJ	.	16b\JJ	.	16c\	tu-	16g\	tu-	.	.	.	.
!	!	!	!	!	!	!	!LO:LB:g=original	!	!	!	!	!	!	!
4D\	.	.	8e/L	.	8a\L	.	(4d\	-o-	(4b\	-o-	.	.	.	.
.	.	.	8c/	.	8ee\	.	.	.	.	.	.	.	.	.
4DD/	.	.	8B/	.	8dd\	.	4D/)	.	4a\)	.	.	.	.	.
.	.	.	8c/J	.	8f#X\J	.	.	.	.	.	.	.	.	.
=70	=70	=70	=70	=70	=70	=70	=70	=70	=70	=70	=70	=70	=70	=70
!	!	!	!	!LO:DY:a:t=for.	!	!	!	!	!	!	!	!	!	!
4GG/	.	.	16B/LL	f	8g\L	.	4G\	-rum	4g\	-rum	2.ryy	2.ryy	2.r	2.r
.	.	.	16G/	.	.	.	.	.	.	.	.	.	.	.
!	!	!	!	!	!	!LO:DY:a:t=for	!	!	!	!	!	!	!	!
.	.	.	16A/	.	16a\L	f	.	.	.	.	.	.	.	.
.	.	.	16B/JJ	.	16b\JJ	.	.	.	.	.	.	.	.	.
4G\	.	.	16c/LL	.	16cc\LL	.	4r	.	4r	.	.	.	.	.
.	.	.	16d/	.	16dd\	.	.	.	.	.	.	.	.	.
.	.	.	16e/	.	16ee\	.	.	.	.	.	.	.	.	.
.	.	.	16f#X/JJ	.	16ff#X\JJ	.	.	.	.	.	.	.	.	.
4r	.	.	4g/	.	4gg\	.	4r	.	4r	.	.	.	.	.
=71	=71	=71	=71	=71	=71	=71	=71	=71	=71	=71	=71	=71	=71	=71
!LO:TX:t=P:problem=mixed beam	!	!	!	!LO:DY:a:t=p.	!	!	!	!	!LO:TX:a:i:t=Solo	!	!	!	!	!
8GG/L	.	.	(16B/LL	p	8r	.	2.r	.	8g\L	Te-	2.ryy	2.ryy	2.r	2.r
.	.	.	16d/)	.	.	.	.	.	.	.	.	.	.	.
!	!	!	!	!	!	!LO:DY:b:t=p.	!	!	!	!	!	!	!	!
8G\J	.	.	(16B/	.	8g/L	p	.	.	8b\J	.	.	.	.	.
.	.	.	16d/JJ)	.	.	.	.	.	.	.	.	.	.	.
*tremolo	*	*	*rep	*	*tremolo	*	*	*	*	*	*	*	*	*
!	!	!	!	!	!LO:TX:t=P:problem=błędne wyświetlanie grupy	!	!	!	!	!	!	!	!	!
8G\L	5 3	.	(16B/LL	.	8g/	.	.	.	4.dd\	-cum	.	.	.	.
.	.	.	16d/)	.	.	.	.	.	.	.	.	.	.	.
8G\	.	.	(16B/	.	8g/	.	.	.	.	.	.	.	.	.
.	.	.	16d/JJ)	.	.	.	.	.	.	.	.	.	.	.
*	*	*	*Xrep	*	*	*	*	*	*	*	*	*	*	*
*	*	*	*rep	*	*	*	*	*	*	*	*	*	*	*
8G\	.	.	(16B/LL	.	8g/	.	.	.	.	.	.	.	.	.
.	.	.	16d/)	.	.	.	.	.	.	.	.	.	.	.
8G\J	.	.	(16B/	.	8g/J	.	.	.	8g\	prin-	.	.	.	.
.	.	.	16d/JJ)	.	.	.	.	.	.	.	.	.	.	.
*Xtremolo	*	*	*Xrep	*	*Xtremolo	*	*	*	*	*	*	*	*	*
=72	=72	=72	=72	=72	=72	=72	=72	=72	=72	=72	=72	=72	=72	=72
!LO:TX:t=P:problem=mixed beam	!	!	!	!	!	!	!	!	!	!	!	!	!	!
!	!	!	!	!	!LO:LB:g=original	!	!	!	!	!	!	!	!	!
8GG/L	.	.	(16c/LL	.	8r	.	2.r	.	8.b\	-ci-	2.ryy	2.ryy	2.r	2.r
.	.	.	16d/)	.	.	.	.	.	.	.	.	.	.	.
8G\J	.	.	(16c/	.	8f#X/L	.	.	.	.	.	.	.	.	.
.	.	.	16d/JJ)	.	.	.	.	.	16a\	-pi-	.	.	.	.
*tremolo	*	*	*rep	*	*tremolo	*	*	*	*	*	*	*	*	*
!	!	!	!	!	!LO:TX:t=P:problem=błędne wyświetlanie grupy	!	!	!	!	!	!	!	!	!
8G\L	7# 4	.	(16c/LL	.	8f#/	.	.	.	4a\	-um	.	.	.	.
.	.	.	16d/)	.	.	.	.	.	.	.	.	.	.	.
8G\	.	.	(16c/	.	8f#/	.	.	.	.	.	.	.	.	.
.	.	.	16d/JJ)	.	.	.	.	.	.	.	.	.	.	.
*	*	*	*Xrep	*	*	*	*	*	*	*	*	*	*	*
*	*	*	*rep	*	*	*	*	*	*	*	*	*	*	*
8G\	.	.	(16c/LL	.	8f#/	.	.	.	8r	.	.	.	.	.
.	.	.	16d/)	.	.	.	.	.	.	.	.	.	.	.
8G\J	.	.	(16c/	.	8f#/J	.	.	.	8a\	in	.	.	.	.
.	.	.	16d/JJ)	.	.	.	.	.	.	.	.	.	.	.
*Xtremolo	*	*	*Xrep	*	*Xtremolo	*	*	*	*	*	*	*	*	*
=73	=73	=73	=73	=73	=73	=73	=73	=73	=73	=73	=73	=73	=73	=73
!LO:TX:t=P:problem=mixed beam	!	!	!	!	!	!	!	!	!	!	!	!	!	!
!LO:LB:g=original	!	!	!	!	!	!	!	!	!	!	!	!	!	!
8GG/L	.	.	(16B/LL	.	8r	.	2.r	.	8b\L	di-	2.ryy	2.ryy	2.r	2.r
.	.	.	16d/)	.	.	.	.	.	.	.	.	.	.	.
8G\J	7n 5	.	(16B/	.	8fn/L	.	.	.	8dd\J	.	.	.	.	.
.	.	.	16d/JJ)	.	.	.	.	.	.	.	.	.	.	.
*tremolo	*	*	*rep	*	*tremolo	*	*	*	*	*	*	*	*	*
!	!	!	!	!	!LO:TX:t=P:problem=błędne wyświetlanie grupy	!	!	!	!	!	!	!	!	!
8G\L	.	.	(16B/LL	.	8f/	.	.	.	8ff\	-e	.	.	.	.
.	.	.	16d/)	.	.	.	.	.	.	.	.	.	.	.
8G\	.	.	(16B/	.	8f/	.	.	.	8dd\	vir-	.	.	.	.
.	.	.	16d/JJ)	.	.	.	.	.	.	.	.	.	.	.
*	*	*	*Xrep	*	*	*	*	*	*	*	*	*	*	*
*	*	*	*rep	*	*	*	*	*	*	*	*	*	*	*
8G\	.	.	(16B/LL	.	8f/	.	.	.	8cc\	-tu-	.	.	.	.
.	.	.	16d/)	.	.	.	.	.	.	.	.	.	.	.
8G\J	.	.	(16B/	.	8f/J	.	.	.	8b\	-tis	.	.	.	.
.	.	.	16d/JJ)	.	.	.	.	.	.	.	.	.	.	.
*Xtremolo	*	*	*Xrep	*	*Xtremolo	*	*	*	*	*	*	*	*	*
=74	=74	=74	=74	=74	=74	=74	=74	=74	=74	=74	=74	=74	=74	=74
!LO:TX:t=P:problem=mixed beam	!	!	!	!	!	!	!	!	!	!	!	!	!	!
8GG/L	.	.	(16G/LL	.	8r	.	2.r	.	8dd\L	tu-	2.ryy	2.ryy	2.r	2.r
.	.	.	16c/)	.	.	.	.	.	.	.	.	.	.	.
8G\J	6 4	.	(16G/	.	8e/L	.	.	.	8cc\J	.	.	.	.	.
.	.	.	16c/JJ)	.	.	.	.	.	.	.	.	.	.	.
*tremolo	*	*	*rep	*	*tremolo	*	*	*	*	*	*	*	*	*
!	!	!	!	!	!LO:TX:t=P:problem=błędne wyświetlanie grupy	!	!	!	!	!	!	!	!	!
8G\L	.	.	(16G/LL	.	8e/	.	.	.	4cc\	-e	.	.	.	.
.	.	.	16c/)	.	.	.	.	.	.	.	.	.	.	.
8G\	.	.	(16G/	.	8e/	.	.	.	.	.	.	.	.	.
.	.	.	16c/JJ)	.	.	.	.	.	.	.	.	.	.	.
*	*	*	*Xrep	*	*	*	*	*	*	*	*	*	*	*
*	*	*	*rep	*	*	*	*	*	*	*	*	*	*	*
!	!	!	!	!	!	!	!	!	!LO:LB:g=original	!	!	!	!	!
8G\	.	.	(16G/LL	.	8e/	.	.	.	8r	.	.	.	.	.
.	.	.	16c/)	.	.	.	.	.	.	.	.	.	.	.
8G\J	.	.	(16G/	.	8e/J	.	.	.	8g\	in	.	.	.	.
.	.	.	16c/JJ)	.	.	.	.	.	.	.	.	.	.	.
*Xtremolo	*	*	*Xrep	*	*Xtremolo	*	*	*	*	*	*	*	*	*
=75	=75	=75	=75	=75	=75	=75	=75	=75	=75	=75	=75	=75	=75	=75
!LO:TX:t=P:problem=mixed beam	!	!	!	!	!	!	!	!	!LO:TX:t=P:problem=w tym takcie poprawki tekstu	!	!	!	!	!
!	!	!	!LO:LB:g=original	!	!	!	!	!	!	!	!	!	!	!
8GG/L	6 4	.	(16e/LL	.	8r	.	2.r	.	8cc\L	sple-	2.ryy	2.ryy	2.r	2.r
.	.	.	16g/)	.	.	.	.	.	.	.	.	.	.	.
8G\J	.	.	(16e/	.	8cc\L	.	.	.	8ee\J	.	.	.	.	.
.	.	.	16g/JJ)	.	.	.	.	.	.	.	.	.	.	.
*tremolo	*	*	*rep	*	*tremolo	*	*	*	*	*	*	*	*	*
!	!	!	!	!	!LO:TX:t=P:problem=błędne wyświetlanie grupy	!	!	!	!	!	!	!	!	!
8G\L	.	.	(16e/LL	.	8cc\	.	.	.	8gg\	-do-	.	.	.	.
.	.	.	16g/)	.	.	.	.	.	.	.	.	.	.	.
8G\	.	.	(16e/	.	8cc\	.	.	.	8ee\	-ri-	.	.	.	.
.	.	.	16g/JJ)	.	.	.	.	.	.	.	.	.	.	.
*	*	*	*Xrep	*	*	*	*	*	*	*	*	*	*	*
*	*	*	*rep	*	*	*	*	*	*	*	*	*	*	*
8G\	.	.	(16e/LL	.	8cc\	.	.	.	8dd\	-bus	.	.	.	.
.	.	.	16g/)	.	.	.	.	.	.	.	.	.	.	.
8G\J	.	.	(16e/	.	8cc\J	.	.	.	8cc#X\	san-	.	.	.	.
.	.	.	16g/JJ)	.	.	.	.	.	.	.	.	.	.	.
*Xtremolo	*	*	*Xrep	*	*Xtremolo	*	*	*	*	*	*	*	*	*
=76	=76	=76	=76	=76	=76	=76	=76	=76	=76	=76	=76	=76	=76	=76
!LO:TX:t=P:problem=mixed beam	!	!	!	!	!	!	!	!	!	!	!	!	!	!
8GG/L	7 5	.	(16fn/LL	.	8r	.	2.r	.	8ee\L	-cto-	2.ryy	2.ryy	2.r	2.r
.	.	.	16g/)	.	.	.	.	.	.	.	.	.	.	.
8G\J	.	.	(16f/	.	8b\L	.	.	.	8dd\J	.	.	.	.	.
.	.	.	16g/JJ)	.	.	.	.	.	.	.	.	.	.	.
*tremolo	*	*	*rep	*	*tremolo	*	*	*	*	*	*	*	*	*
!	!	!	!	!	!LO:TX:t=P:problem=błędne wyświetlanie grupy	!	!	!	!	!	!	!	!	!
8G\L	.	.	(16fn/LL	.	8b\	.	.	.	4dd\	-rum	.	.	.	.
.	.	.	16g/)	.	.	.	.	.	.	.	.	.	.	.
8G\	.	.	(16f/	.	8b\	.	.	.	.	.	.	.	.	.
.	.	.	16g/JJ)	.	.	.	.	.	.	.	.	.	.	.
*	*	*	*Xrep	*	*	*	*	*	*	*	*	*	*	*
*	*	*	*rep	*	*	*	*	*	*	*	*	*	*	*
8G\	.	.	(16fn/LL	.	8b\	.	.	.	8r	.	.	.	.	.
.	.	.	16g/)	.	.	.	.	.	.	.	.	.	.	.
8G\J	.	.	(16f/	.	8b\J	.	.	.	8dd\	ex	.	.	.	.
.	.	.	16g/JJ)	.	.	.	.	.	.	.	.	.	.	.
*Xtremolo	*	*	*Xrep	*	*Xtremolo	*	*	*	*	*	*	*	*	*
=77	=77	=77	=77	=77	=77	=77	=77	=77	=77	=77	=77	=77	=77	=77
!LO:TX:t=P:problem=mixed beam	!	!	!	!	!	!	!	!	!	!	!	!	!	!
8FF/L	6 3	.	8f/L	.	8r	.	2.r	.	8dd\	u-	2.ryy	2.ryy	2.r	2.r
8F\	.	.	8a/	.	8dd\L	.	.	.	8ff\	-te-	.	.	.	.
*tremolo	*	*	*tremolo	*	*tremolo	*	*	*	*	*	*	*	*	*
!LO:TX:t=P:problem=błędne wyświetlanie grupy	!	!	!LO:TX:t=P:problem=błędne wyświetlanie grupy	!	!LO:TX:t=P:problem=błędne wyświetlanie grupy	!	!	!	!	!	!	!	!	!
8F\	.	.	8a/	.	8dd\	.	.	.	8aa\	-ro	.	.	.	.
8F\	.	.	8a/	.	8dd\	.	.	.	8ff\	an-	.	.	.	.
8F\	.	.	8a/	.	8dd\	.	.	.	8dd\	-te	.	.	.	.
8F\J	.	.	8a/J	.	8dd\J	.	.	.	8cc#X\	lu-	.	.	.	.
*Xtremolo	*	*	*Xtremolo	*	*Xtremolo	*	*	*	*	*	*	*	*	*
=78	=78	=78	=78	=78	=78	=78	=78	=78	=78	=78	=78	=78	=78	=78
!LO:TX:t=P:problem=mixed beam	!	!	!	!	!	!	!	!	!	!	!	!	!	!
8FF/L	.	.	8r	.	8r	.	2.r	.	4.dd\	-ci-	2.ryy	2.ryy	2.r	2.r
8F\	.	.	8a/L	.	8dd\L	.	.	.	.	.	.	.	.	.
8F\	.	.	8a/	.	8dd\	.	.	.	.	.	.	.	.	.
8F\	.	.	8g/	.	8ee\	.	.	.	8ee\	-fe-	.	.	.	.
8F\	.	.	8f/	.	8dd\	.	.	.	8dd\	-rum	.	.	.	.
8F#X\J	5 3	.	8e/J	.	8cc\J	.	.	.	8cc\	ge-	.	.	.	.
=79	=79	=79	=79	=79	=79	=79	=79	=79	=79	=79	=79	=79	=79	=79
!LO:TX:t=P:problem=mixed beam	!	!	!	!	!	!	!	!	!	!	!	!	!	!
8G\L	.	.	8e/L	.	8cc\L	.	4r	.	8.cc\	-nu-	2.ryy	2.ryy	2.r	2.r
8GG/	.	.	8d/	.	8b\	.	.	.	.	.	.	.	.	.
.	.	.	.	.	.	.	.	.	16b\	-i-	.	.	.	.
8G\	.	.	8d/	.	8b\	.	4r	.	4b\	-te	.	.	.	.
8Fn\	.	.	8e/	.	8g\	.	.	.	.	.	.	.	.	.
!	!	!	!	!	!	!	!	!	!LO:LB:g=original	!	!	!	!	!
8E\	.	.	8f/	.	8a\	.	8r	.	8r	.	.	.	.	.
8D\J	.	.	8d/J	.	8b\J	.	8G\	Iu-	8g\	Iu-	.	.	.	.
=80	=80	=80	=80	=80	=80	=80	=80	=80	=80	=80	=80	=80	=80	=80
*tremolo	*	*	*	*	*	*	*	*	*	*	*	*	*	*
!	!	!	!	!	!	!LO:DY:a:t=for	!	!	!	!	!	!	!	!
8C/L	.	.	2e 2G/	.	2cc 2e 2G/	f	2c\	-ra-	2cc\	-ra-	2.ryy	2.ryy	2e/	2cc\
8C/	.	.	.	.	.	.	.	.	.	.	.	.	.	.
8C/	.	.	.	.	.	.	.	.	.	.	.	.	.	.
8C/	.	.	.	.	.	.	.	.	.	.	.	.	.	.
.	.	.	.	.	8qqdd/	.	.	.	.	.	.	.	.	.
8C/	.	.	16e/LL	.	16cc\LL	.	8C/	-vit	8cc\	-vit	.	.	4b\	4dd\
.	.	.	16d/	.	16b\	.	.	.	.	.	.	.	.	.
8C/J	.	.	16e/	.	16cc\	.	8c\	iu-	8dd\	iu-	.	.	.	.
.	.	.	16f/JJ	.	16dd\JJ	.	.	.	.	.	.	.	.	.
=81	=81	=81	=81	=81	=81	=81	=81	=81	=81	=81	=81	=81	=81	=81
8C/L	.	.	2cc 2e 2G/	.	2ee\	.	2c\	-ra-	2ee\	-ra-	2.ryy	2.ryy	2cc\	2ee\
8C/	.	.	.	.	.	.	.	.	.	.	.	.	.	.
8C/	.	.	.	.	.	.	.	.	.	.	.	.	.	.
8C/	.	.	.	.	.	.	.	.	.	.	.	.	.	.
8C/	.	.	16cc\LL	.	16ee\LL	.	4C/	-vit	8ee\L	-vit	.	.	4dd\	4ff\
.	.	.	16b\	.	16dd\	.	.	.	.	.	.	.	.	.
8C/J	.	.	16cc\	.	16ee\	.	.	.	8ff\J	.	.	.	.	.
.	.	.	16dd\JJ	.	16ff\JJ	.	.	.	.	.	.	.	.	.
=82	=82	=82	=82	=82	=82	=82	=82	=82	=82	=82	=82	=82	=82	=82
8C/L	.	.	16ee\LL	.	4gg\	.	4c\	Iu-	4gg\	Iu-	2.ryy	2.ryy	4ee\	4gg\
.	.	.	16cc\	.	.	.	.	.	.	.	.	.	.	.
8C/	.	.	16g\	.	.	.	.	.	.	.	.	.	.	.
.	.	.	16e\JJ	.	.	.	.	.	.	.	.	.	.	.
8C/	.	.	16c/LL	.	4ccc\	.	4c\	-ra-	4ee\	-ra-	.	.	4aa\	4ccc\
.	.	.	16e/	.	.	.	.	.	.	.	.	.	.	.
8C/	.	.	16g/	.	.	.	.	.	.	.	.	.	.	.
.	.	.	16e/JJ	.	.	.	.	.	.	.	.	.	.	.
8C/	.	.	16c/LL	.	4bb\	.	4c\	-vit	8dd\L	-vit	.	.	4gg\	4bb\
.	.	.	16f/	.	.	.	.	.	.	.	.	.	.	.
8C/J	.	.	16a/	.	.	.	.	.	8ff\J	.	.	.	.	.
.	.	.	16f/JJ	.	.	.	.	.	.	.	.	.	.	.
*Xtremolo	*	*	*	*	*	*	*	*	*	*	*	*	*	*
=83	=83	=83	=83	=83	=83	=83	=83	=83	=83	=83	=83	=83	=83	=83
!	!	!	!	!	!LO:LB:g=original	!	!	!	!	!	!	!	!	!
8BB/L	7 5	.	16c/LL	.	4aa\	.	8.B\	Do-	8.aa\	Do-	2.ryy	2.ryy	4ff\	4aa\
.	.	.	16e/	.	.	.	.	.	.	.	.	.	.	.
8BB/	.	.	16g/	.	.	.	.	.	.	.	.	.	.	.
.	.	.	16e/JJ	.	.	.	16B\	-mi-	16gg\	-mi-	.	.	.	.
!	!	!	!LO:LB:g=original	!	!	!	!	!	!	!	!	!	!	!
8C/	.	.	16c/LL	.	4gg\	.	4c\	-nus	8gg\	-nus	.	.	4ee\	4gg\
.	.	.	16e/	.	.	.	.	.	.	.	.	.	.	.
8C/	.	.	16g/	.	.	.	.	.	4r	.	.	.	.	.
.	.	.	16e/JJ	.	.	.	.	.	.	.	.	.	.	.
*	*	*	*rep	*	*	*	*	*	*	*	*	*	*	*
8E/	.	.	16c/LL	.	8r	.	8r	.	.	.	.	.	4r	4r
.	.	.	16e/	.	.	.	.	.	.	.	.	.	.	.
8C/J	.	.	16g/	.	8ee\	.	8c\	et	8ee\	et	.	.	.	.
.	.	.	16e/JJ	.	.	.	.	.	.	.	.	.	.	.
*	*	*	*Xrep	*	*	*	*	*	*	*	*	*	*	*
=84	=84	=84	=84	=84	=84	=84	=84	=84	=84	=84	=84	=84	=84	=84
*tremolo	*	*	*	*	*	*	*	*	*	*	*	*	*	*
!LO:TX:t=P:problem=błędne wyświetlanie grupy	!	!	!	!	!	!	!	!	!	!	!	!	!	!
8G\L	.	.	16d/LL	.	8gg\L	.	4B\	non	8gg\L	non	2.ryy	2.ryy	2.r	2.r
.	.	.	16f/	.	.	.	.	.	.	.	.	.	.	.
8G\	.	.	16g/	.	8ff\J	.	.	.	8ff\J	.	.	.	.	.
.	.	.	16f/JJ	.	.	.	.	.	.	.	.	.	.	.
*	*	*	*rep	*	*	*	*	*	*	*	*	*	*	*
8G\	.	.	16d/LL	.	4.dd\	.	4.B\	pe-	4.dd\	pe-	.	.	.	.
.	.	.	16f/	.	.	.	.	.	.	.	.	.	.	.
8G\	.	.	16g/	.	.	.	.	.	.	.	.	.	.	.
.	.	.	16f/JJ	.	.	.	.	.	.	.	.	.	.	.
*	*	*	*Xrep	*	*	*	*	*	*	*	*	*	*	*
*Xtremolo	*	*	*rep	*	*	*	*	*	*	*	*	*	*	*
8B\	.	.	16d/LL	.	.	.	.	.	.	.	.	.	.	.
.	.	.	16f/	.	.	.	.	.	.	.	.	.	.	.
8G\J	.	.	16g/	.	8ff\	.	8B\	-ni-	8ff\	-ni-	.	.	.	.
.	.	.	16f/JJ	.	.	.	.	.	.	.	.	.	.	.
*	*	*	*Xrep	*	*	*	*	*	*	*	*	*	*	*
=85	=85	=85	=85	=85	=85	=85	=85	=85	=85	=85	=85	=85	=85	=85
!LO:TX:t=P:problem=mixed beam	!	!	!	!	!	!	!	!	!	!	!	!	!	!
8c\L	.	.	16c/LL	.	16ff\LL	.	4c\	-te-	(16ff\LL	-te-	2.ryy	2.ryy	2.r	2.r
.	.	.	16e/	.	16ee\	.	.	.	16ee\	.	.	.	.	.
8C/	.	.	16g/	.	16aa\	.	.	.	16aa\	.	.	.	.	.
.	.	.	16e/JJ	.	16gg\JJ	.	.	.	16gg\JJ)	.	.	.	.	.
*	*	*	*rep	*	*	*	*	*	*	*	*	*	*	*
8C/	.	.	16c/LL	.	4.gg\	.	4E\	-bit	4.gg\	-bit	.	.	.	.
.	.	.	16e/	.	.	.	.	.	.	.	.	.	.	.
8C/	.	.	16g/	.	.	.	.	.	.	.	.	.	.	.
.	.	.	16e/JJ	.	.	.	.	.	.	.	.	.	.	.
*	*	*	*Xrep	*	*	*	*	*	*	*	*	*	*	*
8E/	.	.	16c/LL	.	.	.	8r	.	.	.	.	.	.	.
.	.	.	16e/	.	.	.	.	.	.	.	.	.	.	.
8C/J	.	.	16g/	.	8ee\	.	8A\	non	8ee\	non	.	.	.	.
.	.	.	16cc/JJ	.	.	.	.	.	.	.	.	.	.	.
=86	=86	=86	=86	=86	=86	=86	=86	=86	=86	=86	=86	=86	=86	=86
!LO:TX:t=P:problem=mixed beam	!	!	!	!	!	!	!	!	!	!	!	!	!	!
!	!	!	!	!	!	!	!	!	!LO:LB:g=original	!	!	!	!	!
!	!	!	!	!	!	!	!LO:LB:g=original	!	!	!	!	!	!	!
8F\L	.	.	16g/LL	.	16ee\LL	.	8F\	pe-	16ee\LL	pe-	2.ryy	2.ryy	4dd\	4ff\
.	.	.	16f/	.	16dd\	.	.	.	16dd\JJ	.	.	.	.	.
8F\	.	.	16a/	.	16ff\	.	8D\	-ni-	16ff\LL	-ni-	.	.	.	.
.	.	.	16f/JJ	.	16dd\JJ	.	.	.	16dd\JJ	.	.	.	.	.
8G\	.	.	4e/	.	4cc\	.	4G\	-te-	4cc\	-te-	.	.	4cc\	4ee\
8G\	.	.	.	.	.	.	.	.	.	.	.	.	.	.
8GG/	.	.	4d/	.	4b\	.	4GG/	-bit	4b\	-bit	.	.	4g/	4dd\
8GG/J	.	.	.	.	.	.	.	.	.	.	.	.	.	.
=87	=87	=87	=87	=87	=87	=87	=87	=87	=87	=87	=87	=87	=87	=87
!LO:LB:g=original	!	!	!	!	!	!	!	!	!	!	!	!	!	!
4C/	.	.	8e/L	.	8cc\L	.	4C/	e-	8cc\L	e-	2.ryy	2.ryy	4e/	4cc\
.	.	.	8d/	.	8b\	.	.	.	8b\J	.	.	.	.	.
4r	.	.	8e/	.	8cc\	.	4C/	-um	4cc\	-um	.	.	4r	4r
.	.	.	8B/	.	8dd\	.	.	.	.	.	.	.	.	.
4r	.	.	8c/	.	8ee\	.	4r	.	4r	.	.	.	4r	4r
.	.	.	8d/J	.	8ff\J	.	.	.	.	.	.	.	.	.
=88	=88	=88	=88	=88	=88	=88	=88	=88	=88	=88	=88	=88	=88	=88
*tremolo	*	*	*	*	*	*	*	*	*	*	*	*	*	*
8GG/L	.	.	16d/LL	.	8gg\L	.	4B\	tu	8gg\L	tu	2.ryy	2.ryy	2.b\	2.dd\
.	.	.	16f/	.	.	.	.	.	.	.	.	.	.	.
8GG/	.	.	16g/	.	8ff\J	.	.	.	8ff\J	.	.	.	.	.
.	.	.	16f/JJ	.	.	.	.	.	.	.	.	.	.	.
*	*	*	*rep	*	*	*	*	*	*	*	*	*	*	*
8GG/	.	.	16d/LL	.	4.dd\	.	4.B\	es	4.dd\	es	.	.	.	.
.	.	.	16f/	.	.	.	.	.	.	.	.	.	.	.
8GG/J	.	.	16g/	.	.	.	.	.	.	.	.	.	.	.
.	.	.	16f/JJ	.	.	.	.	.	.	.	.	.	.	.
*Xtremolo	*	*	*Xrep	*	*	*	*	*	*	*	*	*	*	*
*	*	*	*rep	*	*	*	*	*	*	*	*	*	*	*
8BB/L	.	.	16d/LL	.	.	.	.	.	.	.	.	.	.	.
.	.	.	16f/	.	.	.	.	.	.	.	.	.	.	.
8BB/J	.	.	16g/	.	8ff\	.	8B\	Sa-	8ff\	sa-	.	.	.	.
.	.	.	16f/JJ	.	.	.	.	.	.	.	.	.	.	.
*	*	*	*Xrep	*	*	*	*	*	*	*	*	*	*	*
=89	=89	=89	=89	=89	=89	=89	=89	=89	=89	=89	=89	=89	=89	=89
*tremolo	*	*	*	*	*	*	*	*	*	*	*	*	*	*
8C/L	.	.	16e/LL	.	16ff\LL	.	4c\	-cer-	16ff\LL	-cer-	2.ryy	2.ryy	2.cc\	2.ee\
.	.	.	16g/	.	16ee\	.	.	.	16ee\	.	.	.	.	.
8C/	.	.	16cc/	.	16aa\	.	.	.	16aa\	.	.	.	.	.
.	.	.	16g/JJ	.	16gg\JJ	.	.	.	16gg\JJ	.	.	.	.	.
*	*	*	*rep	*	*	*	*	*	*	*	*	*	*	*
8C/	.	.	16e/LL	.	4.gg\	.	4E\	-dos	4.gg\	-dos	.	.	.	.
.	.	.	16g/	.	.	.	.	.	.	.	.	.	.	.
8C/J	.	.	16cc/	.	.	.	.	.	.	.	.	.	.	.
.	.	.	16g/JJ	.	.	.	.	.	.	.	.	.	.	.
*Xtremolo	*	*	*Xrep	*	*	*	*	*	*	*	*	*	*	*
*	*	*	*rep	*	*	*	*	*	*	*	*	*	*	*
8E/L	.	.	16e/LL	.	.	.	8r	.	.	.	.	.	.	.
.	.	.	16g/	.	.	.	.	.	.	.	.	.	.	.
8E/J	.	.	16cc/	.	8ee\	.	8c\	Sa-	8ee\	sa-	.	.	.	.
.	.	.	16g/JJ	.	.	.	.	.	.	.	.	.	.	.
*	*	*	*Xrep	*	*	*	*	*	*	*	*	*	*	*
=90	=90	=90	=90	=90	=90	=90	=90	=90	=90	=90	=90	=90	=90	=90
!	!	!	!	!	!	!	!	!	!	!	!	!	!	!LO:TX:t=P:problem=mixed beam
8F\L	.	.	8a/L	.	8dd\L	.	4F\	-cer-	8dd\L	-cer-	2.ryy	2.ryy	8a\L	8dd\L
8E\	.	.	8g/	.	8ee\	.	.	.	8ee\J	.	.	.	8g\	8ee\
8F\	.	.	8a/	.	8ff\	.	4F\	-dos	8ff\L	-dos	.	.	8a\	8ff\
8E\	.	.	8cc#X/	.	8gg\	.	.	.	8gg\J	.	.	.	8cc#X\	8gg\
8F\	.	.	8dd/	.	8aa\	.	8F\	i-	8aa\	i-	.	.	8dd\	8aa\
8F#X\J	.	.	8a/J	.	8cc\J	.	8F#X\	-ne-	8cc\	-ne-	.	.	8a\J	8cc/J
=91	=91	=91	=91	=91	=91	=91	=91	=91	=91	=91	=91	=91	=91	=91
!	!	!	!LO:LB:g=original	!	!	!	!	!	!	!	!	!	!LO:LB:g=original	!
4G\	.	.	4cc 4e 4G/	.	4cc 4e 4G/	.	4G\	-ter-	4cc\	-ter-	2.ryy	2.ryy	4e/	4cc\
4GG/	.	.	4b 4d 4G/	.	4b 4d 4G/	.	4GG/	-num	4b\	-num	.	.	4d/	4b\
4r	.	.	4r	.	4r	.	4r	.	4r	.	.	.	4r	4r
=92	=92	=92	=92	=92	=92	=92	=92	=92	=92	=92	=92	=92	=92	=92
*	*	*	*tremolo	*	*	*	*	*	*	*	*	*	*	*
!LO:TX:t=P:problem=mixed beam	!	!	!	!	!	!	!	!	!	!	!	!	!	!
!	!	!	!	!	!LO:LB:g=original	!	!	!	!	!	!	!	!	!LO:LB:g=original
8GG/L	.	.	16bLL 16d/	.	4ff\	.	2d\	Se-	2ff\	Se-	2.ryy	2.ryy	2dd\	2ff\
.	.	.	16b 16d/	.	.	.	.	.	.	.	.	.	.	.
8G\	.	.	16b 16d/	.	.	.	.	.	.	.	.	.	.	.
.	.	.	16b 16d/	.	.	.	.	.	.	.	.	.	.	.
8A\	.	.	16b 16d/	.	16ff\LL	.	.	.	.	.	.	.	.	.
.	.	.	16b 16d/	.	16ee\	.	.	.	.	.	.	.	.	.
8B\	.	.	16b 16d/	.	16dd\	.	.	.	.	.	.	.	.	.
.	.	.	16b 16d/	.	16cc\JJ	.	.	.	.	.	.	.	.	.
8c\	.	.	16b 16d/	.	16b/LL	.	4B\	-cun-	4dd\	-con-	.	.	4b\	4dd\
.	.	.	16b 16d/	.	16a/	.	.	.	.	.	.	.	.	.
8d\J	.	.	16b 16d/	.	16g/	.	.	.	.	.	.	.	.	.
.	.	.	16bJJ 16d/	.	16f/JJ	.	.	.	.	.	.	.	.	.
=93	=93	=93	=93	=93	=93	=93	=93	=93	=93	=93	=93	=93	=93	=93
4c\	.	.	16ccLL 16d/	.	16e/LL	.	4c\	-dum	4ee\	-dum	2.ryy	2.ryy	4cc\	4ee\
.	.	.	16cc 16d/	.	16g/	.	.	.	.	.	.	.	.	.
.	.	.	16cc 16d/	.	16a/	.	.	.	.	.	.	.	.	.
.	.	.	16cc 16d/	.	16b/JJ	.	.	.	.	.	.	.	.	.
4C/	.	.	16cc 16d/	.	16cc\LL	.	4r	.	4r	.	.	.	4r	4r
.	.	.	16cc 16d/	.	16dd\	.	.	.	.	.	.	.	.	.
.	.	.	16cc 16d/	.	16ee\	.	.	.	.	.	.	.	.	.
.	.	.	16cc 16d/	.	16ff\JJ	.	.	.	.	.	.	.	.	.
4r	.	.	16cc 16d/	.	16gg\LL	.	4r	.	4r	.	.	.	4r	4r
.	.	.	16cc 16d/	.	16ee\	.	.	.	.	.	.	.	.	.
.	.	.	16cc 16d/	.	16aa\	.	.	.	.	.	.	.	.	.
.	.	.	16ccJJ 16d/	.	16gg\JJ	.	.	.	.	.	.	.	.	.
=94	=94	=94	=94	=94	=94	=94	=94	=94	=94	=94	=94	=94	=94	=94
!LO:TX:t=P:problem=mixed beam	!	!	!	!	!	!	!	!	!	!	!	!	!	!
!	!	!	!	!	!	!	!	!	!LO:LB:g=original	!	!	!	!	!
8GG/L	.	.	16bLL 16d/	.	16ff\LL	.	2d\	or-	2ff\	or-	2.ryy	2.ryy	2dd\	2ff\
.	.	.	16b 16d/	.	16gg\	.	.	.	.	.	.	.	.	.
8G\	.	.	16b 16d/	.	16ff\	.	.	.	.	.	.	.	.	.
.	.	.	16b 16d/	.	16ee\JJ	.	.	.	.	.	.	.	.	.
8A\	.	.	16b 16d/	.	16dd\LL	.	.	.	.	.	.	.	.	.
.	.	.	16b 16d/	.	16ee\	.	.	.	.	.	.	.	.	.
8B\	.	.	16b 16d/	.	16dd\	.	.	.	.	.	.	.	.	.
.	.	.	16b 16d/	.	16cc\JJ	.	.	.	.	.	.	.	.	.
8c\	.	.	16b 16d/	.	16b\LL	.	4B\	-di-	4dd\	-di-	.	.	4b\	4dd\
.	.	.	16b 16d/	.	16a\	.	.	.	.	.	.	.	.	.
8d\J	.	.	16b 16d/	.	16g\	.	.	.	.	.	.	.	.	.
.	.	.	16bJJ 16d/	.	16f\JJ	.	.	.	.	.	.	.	.	.
=95	=95	=95	=95	=95	=95	=95	=95	=95	=95	=95	=95	=95	=95	=95
!	!	!	!	!	!	!	!LO:LB:g=original	!	!	!	!	!	!	!
4c\	.	.	16ccLL 16d/	.	16e/LL	.	4c\	-nem	4ee\	-nem	2.ryy	2.ryy	4cc\	4ee\
.	.	.	16cc 16d/	.	16g/	.	.	.	.	.	.	.	.	.
.	.	.	16cc 16d/	.	16a/	.	.	.	.	.	.	.	.	.
.	.	.	16cc 16d/	.	16b/JJ	.	.	.	.	.	.	.	.	.
4C/	.	.	16cc 16d/	.	16cc\LL	.	4r	.	4r	.	.	.	4r	4r
.	.	.	16cc 16d/	.	16dd\	.	.	.	.	.	.	.	.	.
.	.	.	16cc 16d/	.	16ee\	.	.	.	.	.	.	.	.	.
.	.	.	16ccJJ 16d/	.	16ff\JJ	.	.	.	.	.	.	.	.	.
*	*	*	*Xtremolo	*	*	*	*	*	*	*	*	*	*	*
4r	.	.	16ee\LL	.	16gg\LL	.	4r	.	4r	.	.	.	4r	4r
.	.	.	16cc\	.	16ee\	.	.	.	.	.	.	.	.	.
.	.	.	16f\	.	16b\	.	.	.	.	.	.	.	.	.
.	.	.	16e\JJ	.	16cc\JJ	.	.	.	.	.	.	.	.	.
=96	=96	=96	=96	=96	=96	=96	=96	=96	=96	=96	=96	=96	=96	=96
*tremolo	*	*	*	*	*	*	*	*	*	*	*	*	*	*
8F\L	.	.	16f/LL	.	4.aa\	.	2F\	Se-	(4.aa\	Se-	2.ryy	2.ryy	2.r	2.r
.	.	.	16a/	.	.	.	.	.	.	.	.	.	.	.
8F\	.	.	16dd/	.	.	.	.	.	.	.	.	.	.	.
.	.	.	16a/JJ	.	.	.	.	.	.	.	.	.	.	.
*	*	*	*rep	*	*	*	*	*	*	*	*	*	*	*
8F\	.	.	16f/LL	.	.	.	.	.	.	.	.	.	.	.
.	.	.	16a/	.	.	.	.	.	.	.	.	.	.	.
8F\	.	.	16dd/	.	16gg#X\LL	.	.	.	16gg#X\LL)	.	.	.	.	.
.	.	.	16a/JJ	.	16aa\JJ	.	.	.	16aa\JJ	.	.	.	.	.
*	*	*	*Xrep	*	*	*	*	*	*	*	*	*	*	*
*	*	*	*rep	*	*	*	*	*	*	*	*	*	*	*
8F\	.	.	16f/LL	.	16ggn\LL	.	8F\	-cun-	16ggn\LL	-con-	.	.	.	.
.	.	.	16a/	.	16ff\	.	.	.	16ff\JJ	.	.	.	.	.
8F\J	.	.	16dd/	.	16ee\	.	8F\	-dum	16ee\LL	-dum	.	.	.	.
!	!	!	!	!	!LO:TX:b:i:t=Verte Cite	!	!	!	!	!	!	!	!	!
.	.	.	16a/JJ	.	16dd\JJ	.	.	.	16dd\JJ	.	.	.	.	.
*	*	*	*Xrep	*	*	*	*	*	*	*	*	*	*	*
=97	=97	=97	=97	=97	=97	=97	=97	=97	=97	=97	=97	=97	=97	=97
!	!	!	!	!	!LO:PB:g=original	!	!	!	!	!	!	!	!	!
8E\L	.	.	16e/LL	.	4gg\	.	4E\	or-	4gg\	or-	2.ryy	2.ryy	2.r	2.r
.	.	.	16g/	.	.	.	.	.	.	.	.	.	.	.
8E\	.	.	16cc/	.	.	.	.	.	.	.	.	.	.	.
.	.	.	16g/JJ	.	.	.	.	.	.	.	.	.	.	.
*	*	*	*rep	*	*	*	*	*	*	*	*	*	*	*
8E\	.	.	16e/LL	.	16aa\LL	.	4G\	-di-	4ff\	-di-	.	.	.	.
.	.	.	16g/	.	16gg\	.	.	.	.	.	.	.	.	.
8E\	.	.	16cc/	.	16aa\	.	.	.	.	.	.	.	.	.
.	.	.	16g/JJ	.	16bb\JJ	.	.	.	.	.	.	.	.	.
*	*	*	*Xrep	*	*	*	*	*	*	*	*	*	*	*
*	*	*	*rep	*	*	*	*	*	*	*	*	*	*	*
8E\	.	.	16e/LL	.	16ccc\LL	.	4c\	-nem	4ee\	-nem	.	.	.	.
.	.	.	16g/	.	16gg\	.	.	.	.	.	.	.	.	.
8E\J	.	.	16cc/	.	16ff\	.	.	.	.	.	.	.	.	.
.	.	.	16g/JJ	.	16ee\JJ	.	.	.	.	.	.	.	.	.
*Xtremolo	*	*	*Xrep	*	*	*	*	*	*	*	*	*	*	*
=98	=98	=98	=98	=98	=98	=98	=98	=98	=98	=98	=98	=98	=98	=98
!LO:TX:t=P:problem=mixed beam	!	!	!	!	!	!	!	!	!	!	!	!	!	!
8F\L	.	.	8a/L	.	16ee\LL	.	8A\L	mel-	8ff\L	Mel-	2.ryy	2.ryy	4dd\	4ff\
.	.	.	.	.	16ff\	.	.	.	.	.	.	.	.	.
8F\	.	.	8f/	.	16a\	.	8F\J	.	8dd\J	.	.	.	.	.
.	.	.	.	.	16dd\JJ	.	.	.	.	.	.	.	.	.
8G\	.	.	8e 8G/	.	4cc\	.	4G\	-hi-	4cc\	-chi-	.	.	4cc\	4ee\
8G\	.	.	8e 8G/	.	.	.	.	.	.	.	.	.	.	.
8GG/	.	.	8f 8G/	.	4b\	.	4GG/	-se-	4b\	-se-	.	.	4g/	4dd\
8GG/J	.	.	8fJ 8G/	.	.	.	.	.	.	.	.	.	.	.
=99	=99	=99	=99	=99	=99	=99	=99	=99	=99	=99	=99	=99	=99	=99
4C/	.	.	4e 4G/	.	4cc\	.	4C/	-dech	4cc\	-dech	2.ryy	2.ryy	4e/	4cc\
4CC/	.	.	4e 4c/	.	4c/	.	4r	.	4r	.	.	.	4c/	4c/
4r	.	.	4r	.	4r	.	4r	.	4r	.	.	.	4r	4r
=100	=100	=100	=100	=100	=100	=100	=100	=100	=100	=100	=100	=100	=100	=100
!LO:LB:g=original	!	!LO:DY:a:t=p.	!	!	!	!	!	!	!LO:TX:i:t=Solo	!	!	!	!	!
4AA/	5 3	p	8r	.	8r	.	2.r	.	4.ee\	Do-	2.ryy	2.ryy	2.r	2.r
!	!	!	!	!	!	!LO:DY:b:t=pp.	!	!	!	!	!	!	!	!
.	.	.	8cc\L	.	8ee\L	pp	.	.	.	.	.	.	.	.
*	*	*	*tremolo	*	*tremolo	*	*	*	*	*	*	*	*	*
!	!	!	!LO:TX:t=P:problem=błędne wyświetlanie grupy	!	!LO:TX:t=P:problem=błędne wyświetlanie grupy	!	!	!	!	!	!	!	!	!
4A\	.	.	8cc\	.	8ee\	.	.	.	.	.	.	.	.	.
.	.	.	8cc\	.	8ee\	.	.	.	16cc\LL	-mi-	.	.	.	.
.	.	.	.	.	.	.	.	.	16a\JJ	.	.	.	.	.
4r	.	.	8cc\	.	8ee\	.	.	.	8.aa\	-nus	.	.	.	.
.	.	.	8cc\J	.	8ee\J	.	.	.	.	.	.	.	.	.
.	.	.	.	.	.	.	.	.	16gg\	a	.	.	.	.
*	*	*	*Xtremolo	*	*Xtremolo	*	*	*	*	*	*	*	*	*
=101	=101	=101	=101	=101	=101	=101	=101	=101	=101	=101	=101	=101	=101	=101
4AA/	6 4	.	8r	.	8r	.	2.r	.	8gg\L	dex-	2.ryy	2.ryy	2.r	2.r
.	.	.	8dd\L	.	8ff\L	.	.	.	8ff\J	.	.	.	.	.
*	*	*	*tremolo	*	*tremolo	*	*	*	*	*	*	*	*	*
!	!	!	!LO:TX:t=P:problem=błędne wyświetlanie grupy	!	!LO:TX:t=P:problem=błędne wyświetlanie grupy	!	!	!	!	!	!	!	!	!
4A\	.	.	8dd\	.	8ff\	.	.	.	4ff\	-tris	.	.	.	.
.	.	.	8dd\	.	8ff\	.	.	.	.	.	.	.	.	.
4r	.	.	8dd\	.	8ff\	.	.	.	4r	.	.	.	.	.
.	.	.	8dd\J	.	8ff\J	.	.	.	.	.	.	.	.	.
*	*	*	*Xtremolo	*	*Xtremolo	*	*	*	*	*	*	*	*	*
=102	=102	=102	=102	=102	=102	=102	=102	=102	=102	=102	=102	=102	=102	=102
!	!	!	!LO:LB:g=original	!	!	!	!	!	!LO:PB:g=original	!	!	!	!	!
4GG#X/	5 3	.	8r	.	8r	.	2.r	.	16g#X\LL	a	2.ryy	2.ryy	2.r	2.r
.	.	.	.	.	.	.	.	.	(16b\	.	.	.	.	.
.	.	.	8dd\L	.	8ff\L	.	.	.	16dd\	.	.	.	.	.
.	.	.	.	.	.	.	.	.	16ff\JJ)	.	.	.	.	.
4G#X\	.	.	8cc\	.	8ee\	.	.	.	4.ee\	dex-	.	.	.	.
.	.	.	8b\	.	8dd\	.	.	.	.	.	.	.	.	.
4r	.	.	8a\	.	8cc\	.	.	.	.	.	.	.	.	.
.	.	.	8g#X\J	.	8b\J	.	.	.	8dd\	-tris	.	.	.	.
=103	=103	=103	=103	=103	=103	=103	=103	=103	=103	=103	=103	=103	=103	=103
4A\	5_ 3_	.	8r	.	8r	.	2.r	.	16dd\LL	tu-	2.ryy	2.ryy	2.r	2.r
.	.	.	.	.	.	.	.	.	(16cc\	.	.	.	.	.
.	.	.	8e/L	.	8cc\L	.	.	.	16b\	.	.	.	.	.
.	.	.	.	.	.	.	.	.	16a\JJ)	.	.	.	.	.
4AA/	x x	.	8d/	.	8b\	.	.	.	4a\	-is	.	.	.	.
.	.	.	8c/	.	8a\	.	.	.	.	.	.	.	.	.
4r	.	.	8B/	.	8g#X\	.	.	.	8r	.	.	.	.	.
.	.	.	8c/J	.	8a\J	.	.	.	8a\	con-	.	.	.	.
=104	=104	=104	=104	=104	=104	=104	=104	=104	=104	=104	=104	=104	=104	=104
4AA/	x x	.	8r	.	8r	.	2.r	.	(4ee\	-fre-	2.ryy	2.ryy	2.r	2.r
.	.	.	8cc\L	.	8ee\L	.	.	.	.	.	.	.	.	.
*	*	*	*tremolo	*	*tremolo	*	*	*	*	*	*	*	*	*
!	!	!	!LO:TX:t=P:problem=błędne wyświetlanie grupy	!	!LO:TX:t=P:problem=błędne wyświetlanie grupy	!	!	!	!	!	!	!	!	!
4A\	x x	.	8cc\	.	8ee\	.	.	.	16ee\LL	.	.	.	.	.
.	.	.	.	.	.	.	.	.	16cc\	.	.	.	.	.
.	.	.	8cc\	.	8ee\	.	.	.	16b\)	.	.	.	.	.
.	.	.	.	.	.	.	.	.	16a\JJ	.	.	.	.	.
4r	.	.	8cc\	.	8ee\	.	.	.	8.aa\	-git	.	.	.	.
.	.	.	8cc\J	.	8ee\J	.	.	.	.	.	.	.	.	.
.	.	.	.	.	.	.	.	.	16gg\	in	.	.	.	.
*	*	*	*Xtremolo	*	*Xtremolo	*	*	*	*	*	*	*	*	*
=105	=105	=105	=105	=105	=105	=105	=105	=105	=105	=105	=105	=105	=105	=105
4AA/	.	.	8r	.	8r	.	2.r	.	8gg\L	di-	2.ryy	2.ryy	2.r	2.r
.	.	.	8dd\L	.	8ff\L	.	.	.	8ff\J	.	.	.	.	.
*	*	*	*tremolo	*	*tremolo	*	*	*	*	*	*	*	*	*
!	!	!	!LO:TX:t=P:problem=błędne wyświetlanie grupy	!	!LO:TX:t=P:problem=błędne wyświetlanie grupy	!	!	!	!	!	!	!	!	!
4A\	6 4	.	8dd\	.	8ff\	.	.	.	8ff\	-e	.	.	.	.
.	.	.	8dd\	.	8ff\	.	.	.	4r	.	.	.	.	.
4r	.	.	8dd\	.	8ff\	.	.	.	.	.	.	.	.	.
.	.	.	8dd\J	.	8ff\J	.	.	.	8ff\	in	.	.	.	.
*	*	*	*Xtremolo	*	*Xtremolo	*	*	*	*	*	*	*	*	*
=106	=106	=106	=106	=106	=106	=106	=106	=106	=106	=106	=106	=106	=106	=106
!	!	!	!LO:TX:t=P:problem=mixed beam	!	!	!	!	!	!	!	!	!	!	!
2G#X\	5 3	.	8dd\L	.	8ff\L	.	2.r	.	8ff\	di-	2.ryy	2.ryy	2.r	2.r
.	.	.	8cc\	.	8ee\	.	.	.	8ee\	-e	.	.	.	.
.	.	.	8b\	.	8dd\	.	.	.	8dd\	i-	.	.	.	.
.	.	.	8e/	.	8cc\	.	.	.	8cc\	-re	.	.	.	.
8A\L	3	.	8d/	.	8b\	.	.	.	8b\	su-	.	.	.	.
8D#X\J	.	.	8c/J	.	8a\J	.	.	.	8a\	-e	.	.	.	.
=107	=107	=107	=107	=107	=107	=107	=107	=107	=107	=107	=107	=107	=107	=107
!LO:TX:t=P:problem=mixed beam	!	!	!	!	!	!	!	!	!	!	!	!	!	!
8E\L	6	.	4c/	.	4a/	.	2.r	.	4ee\	re-	2.ryy	2.ryy	2.r	2.r
8EE/	.	.	.	.	.	.	.	.	.	.	.	.	.	.
8E\	5	.	8B/L	.	8g#X/L	.	.	.	4e/	-ges	.	.	.	.
8F\	.	.	8e/	.	8gn/	.	.	.	.	.	.	.	.	.
8E\	.	.	8f/	.	8a/	.	.	.	4r	.	.	.	.	.
8D\J	.	.	8d/J	.	8b/J	.	.	.	.	.	.	.	.	.
=108	=108	=108	=108	=108	=108	=108	=108	=108	=108	=108	=108	=108	=108	=108
*tremolo	*	*	*	*	*	*	*	*	*	*	*	*	*	*
!	!	!	!	!	!	!	!LO:TX:a:i:t=Solo	!	!	!	!	!	!	!
!	!	!	!	!	!LO:LB:g=original	!	!	!	!	!	!	!	!	!
8C/L	.	.	4c/	.	16cc\LL	.	2c\	Iu-	2.r	.	2.ryy	2.ryy	2.r	2.r
.	.	.	.	.	16g\	.	.	.	.	.	.	.	.	.
8C/	.	.	.	.	16e\	.	.	.	.	.	.	.	.	.
.	.	.	.	.	16c\JJ	.	.	.	.	.	.	.	.	.
8C/	.	.	16B/LL	.	(16B/LL	.	.	.	.	.	.	.	.	.
.	.	.	16c/	.	16c/)	.	.	.	.	.	.	.	.	.
8C/	.	.	16B/	.	(16B/	.	.	.	.	.	.	.	.	.
.	.	.	16c/JJ	.	16c/JJ)	.	.	.	.	.	.	.	.	.
8C/	.	.	16B/LL	.	(16B/LL	.	4c\	-di-	.	.	.	.	.	.
.	.	.	16c/	.	16c/)	.	.	.	.	.	.	.	.	.
8C/J	.	.	16B/	.	(16B/	.	.	.	.	.	.	.	.	.
.	.	.	16c/JJ	.	16c/JJ)	.	.	.	.	.	.	.	.	.
=109	=109	=109	=109	=109	=109	=109	=109	=109	=109	=109	=109	=109	=109	=109
!	!	!	!	!	!	!	!LO:TX:t=P:problem=mixed beam	!	!	!	!	!	!	!
8C/L	.	.	8c/L	.	8c/L	.	8.c\L	-ca-	2.r	.	2.ryy	2.ryy	2.r	2.r
8C/	.	.	16B/L	.	16d/L	.	.	.	.	.	.	.	.	.
.	.	.	16c/JJ	.	16e/JJ	.	16C/Jk	.	.	.	.	.	.	.
8C/	.	.	16d/LL	.	16f/LL	.	4C/	-bit	.	.	.	.	.	.
.	.	.	16e/	.	16g/	.	.	.	.	.	.	.	.	.
8C/	.	.	16fn/	.	16a/	.	.	.	.	.	.	.	.	.
.	.	.	16g/JJ	.	16b/JJ	.	.	.	.	.	.	.	.	.
8C/	.	.	16a/LL	.	16cc\LL	.	4r	.	.	.	.	.	.	.
.	.	.	16g/	.	16b\	.	.	.	.	.	.	.	.	.
8C/J	.	.	16a/	.	16cc\	.	.	.	.	.	.	.	.	.
.	.	.	16b/JJ	.	16dd\JJ	.	.	.	.	.	.	.	.	.
=110	=110	=110	=110	=110	=110	=110	=110	=110	=110	=110	=110	=110	=110	=110
8C/L	.	.	16cc/LL	.	16ee\LL	.	2e\	Iu-	2.r	.	2.ryy	2.ryy	2.r	2.r
.	.	.	16g/	.	16cc\	.	.	.	.	.	.	.	.	.
8C/	.	.	16e/	.	16g\	.	.	.	.	.	.	.	.	.
.	.	.	16c/JJ	.	16e\JJ	.	.	.	.	.	.	.	.	.
!	!	!	!LO:LB:g=original	!	!	!	!	!	!	!	!	!	!	!
8C/	.	.	16B/LL	.	16d/LL	.	.	.	.	.	.	.	.	.
.	.	.	16c/	.	16c/	.	.	.	.	.	.	.	.	.
8C/	.	.	16B/	.	16B/	.	.	.	.	.	.	.	.	.
.	.	.	16c/JJ	.	16c/JJ	.	.	.	.	.	.	.	.	.
8C/	.	.	16B/LL	.	16B/LL	.	4e\	-di-	.	.	.	.	.	.
.	.	.	16c/	.	16c/	.	.	.	.	.	.	.	.	.
8C/J	.	.	16B/	.	16B/	.	.	.	.	.	.	.	.	.
.	.	.	16c/JJ	.	16c/JJ	.	.	.	.	.	.	.	.	.
=111	=111	=111	=111	=111	=111	=111	=111	=111	=111	=111	=111	=111	=111	=111
8C/L	.	.	16c/LL	.	16c/LL	.	8.e\L	-ca-	2.r	.	2.ryy	2.ryy	2.r	2.r
.	.	.	16c/	.	16e/	.	.	.	.	.	.	.	.	.
8C/	.	.	16d/	.	16f/	.	.	.	.	.	.	.	.	.
.	.	.	16e/JJ	.	16g/JJ	.	16c\Jk	.	.	.	.	.	.	.
!	!	!	!	!	!	!	!LO:LB:g=original	!	!	!	!	!	!	!
8C/	.	.	16f/LL	.	16a/LL	.	4.c\	-bit	.	.	.	.	.	.
.	.	.	16g/	.	16b/	.	.	.	.	.	.	.	.	.
8C/	.	.	16a/	.	16cc/	.	.	.	.	.	.	.	.	.
.	.	.	16b/JJ	.	16dd/JJ	.	.	.	.	.	.	.	.	.
8C/	.	.	16cc/LL	.	16ee/LL	.	.	.	.	.	.	.	.	.
.	.	.	16g/	.	16cc/	.	.	.	.	.	.	.	.	.
8C/J	.	.	16e/	.	16g/	.	8G\	in	.	.	.	.	.	.
.	.	.	16c/JJ	.	16e/JJ	.	.	.	.	.	.	.	.	.
=112	=112	=112	=112	=112	=112	=112	=112	=112	=112	=112	=112	=112	=112	=112
8C/L	.	.	16f/LL	.	16a/LL	.	4A\	na-	2.r	.	2.ryy	2.ryy	2.r	2.r
.	.	.	16c/	.	16f/	.	.	.	.	.	.	.	.	.
8C/	.	.	16B/	.	16B/	.	.	.	.	.	.	.	.	.
.	.	.	16c/JJ	.	16c/JJ	.	.	.	.	.	.	.	.	.
8C/	.	.	16B/LL	.	16B/LL	.	16A\LL	.	.	.	.	.	.	.
.	.	.	16c/	.	16c/	.	16B\	.	.	.	.	.	.	.
8C/	.	.	16B/	.	16B/	.	16c\	.	.	.	.	.	.	.
.	.	.	16c/JJ	.	16c/JJ	.	16B\JJ	.	.	.	.	.	.	.
8C/	.	.	16B/LL	.	16B/LL	.	16d\LL	-ci-	.	.	.	.	.	.
.	.	.	16c/	.	16c/	.	16c\	.	.	.	.	.	.	.
8C/J	.	.	16c/	.	16f/	.	16B\	.	.	.	.	.	.	.
.	.	.	16f/JJ	.	16a/JJ	.	16A\JJ	.	.	.	.	.	.	.
=113	=113	=113	=113	=113	=113	=113	=113	=113	=113	=113	=113	=113	=113	=113
8C/L	.	.	16e/LL	.	16g/LL	.	8.A\	-o-	2.r	.	2.ryy	2.ryy	2.r	2.r
.	.	.	16c/	.	16e/	.	.	.	.	.	.	.	.	.
8C/	.	.	16B/	.	16B/	.	.	.	.	.	.	.	.	.
.	.	.	16c/JJ	.	16c/JJ	.	16G\	-ni-	.	.	.	.	.	.
!	!	!	!	!	!LO:LB:g=original	!	!	!	!	!	!	!	!	!
8C/	.	.	16B/LL	.	16B/LL	.	4G\	-bus	.	.	.	.	.	.
.	.	.	16c/	.	16c/	.	.	.	.	.	.	.	.	.
8C/	.	.	16B/	.	16B/	.	.	.	.	.	.	.	.	.
.	.	.	16c/JJ	.	16c/JJ	.	.	.	.	.	.	.	.	.
8C/	.	.	16c/LL	.	16c/LL	.	8r	.	.	.	.	.	.	.
.	.	.	16c/	.	16e/	.	.	.	.	.	.	.	.	.
8C/J	.	.	16e/	.	16g/	.	8c\	im-	.	.	.	.	.	.
.	.	.	16g/JJ	.	16cc/JJ	.	.	.	.	.	.	.	.	.
=114	=114	=114	=114	=114	=114	=114	=114	=114	=114	=114	=114	=114	=114	=114
!	!	!	!	!	!LO:TX:t=P:problem=takt zapisany inną ręką na końcu partii, z odsyłaczami "vide retro"	!	!	!	!	!	!	!	!	!
8D\L	.	.	(16f/LL	.	4b\	.	8c\L	-ple-	2.r	.	2.ryy	2.ryy	2.r	2.r
.	.	.	16g/)	.	.	.	.	.	.	.	.	.	.	.
8D\	.	.	(16f/	.	.	.	8B\J	.	.	.	.	.	.	.
.	.	.	16g/JJ)	.	.	.	.	.	.	.	.	.	.	.
*	*	*	*rep	*	*	*	*	*	*	*	*	*	*	*
8D\	.	.	(16f/LL	.	16b\LL	.	4B\	-vit	.	.	.	.	.	.
.	.	.	16g/)	.	16gg\	.	.	.	.	.	.	.	.	.
8D\	.	.	(16f/	.	16ff#X\	.	.	.	.	.	.	.	.	.
.	.	.	16g/JJ)	.	16gg\JJ	.	.	.	.	.	.	.	.	.
*	*	*	*Xrep	*	*	*	*	*	*	*	*	*	*	*
*	*	*	*rep	*	*	*	*	*	*	*	*	*	*	*
8D\	.	.	(16f/LL	.	16aa\LL	.	8r	.	.	.	.	.	.	.
.	.	.	16g/)	.	16gg\	.	.	.	.	.	.	.	.	.
8D\J	.	.	(16f/	.	16b\	.	8d\	im-	.	.	.	.	.	.
.	.	.	16g/JJ)	.	16dd\JJ	.	.	.	.	.	.	.	.	.
*	*	*	*Xrep	*	*	*	*	*	*	*	*	*	*	*
=115	=115	=115	=115	=115	=115	=115	=115	=115	=115	=115	=115	=115	=115	=115
8E\L	.	.	(16e/LL	.	4cc\	.	8d\L	-ple-	2.r	.	2.ryy	2.ryy	2.r	2.r
.	.	.	16g/)	.	.	.	.	.	.	.	.	.	.	.
8E\	.	.	(16e/	.	.	.	8c\J	.	.	.	.	.	.	.
.	.	.	16g/JJ)	.	.	.	.	.	.	.	.	.	.	.
*	*	*	*rep	*	*	*	*	*	*	*	*	*	*	*
8E\	.	.	(16e/LL	.	16b\LL	.	4c\	-vit	.	.	.	.	.	.
.	.	.	16g/)	.	16gg\	.	.	.	.	.	.	.	.	.
8E\	.	.	(16e/	.	16ff#X\	.	.	.	.	.	.	.	.	.
.	.	.	16g/JJ)	.	16gg\JJ	.	.	.	.	.	.	.	.	.
*	*	*	*Xrep	*	*	*	*	*	*	*	*	*	*	*
*	*	*	*rep	*	*	*	*	*	*	*	*	*	*	*
8E\	.	.	(16e/LL	.	16aa\LL	.	8r	.	.	.	.	.	.	.
.	.	.	16g/)	.	16gg\	.	.	.	.	.	.	.	.	.
8E\J	.	.	(16e/	.	16cc\	.	8e\	im-	.	.	.	.	.	.
.	.	.	16g/JJ)	.	16ee\JJ	.	.	.	.	.	.	.	.	.
*	*	*	*Xrep	*	*	*	*	*	*	*	*	*	*	*
=116	=116	=116	=116	=116	=116	=116	=116	=116	=116	=116	=116	=116	=116	=116
!	!	!	!LO:LB:g=original	!	!	!	!	!	!	!	!	!	!	!
8F\L	.	.	8g/L	.	8ee\L	.	8e\L	-ple-	2.r	.	2.ryy	2.ryy	2.r	2.r
8F\	.	.	8f/	.	8dd\	.	8d\J	.	.	.	.	.	.	.
8F\	.	.	8f/	.	8aa\	.	8f\L	-vit	.	.	.	.	.	.
8F\J	.	.	8e/	.	8gg\	.	8e\J	.	.	.	.	.	.	.
*Xtremolo	*	*	*	*	*	*	*	*	*	*	*	*	*	*
8F\L	.	.	8d/	.	8ff\	.	8d\L	ru-	.	.	.	.	.	.
8F#X\J	.	.	8c/J	.	8ee\J	.	8c\J	.	.	.	.	.	.	.
=117	=117	=117	=117	=117	=117	=117	=117	=117	=117	=117	=117	=117	=117	=117
!LO:LB:g=original	!	!	!	!	!	!	!	!	!	!	!	!	!	!
4G\	.	.	4c/	.	4ee\	.	4c\	-i-	2.r	.	2.ryy	2.ryy	2.r	2.r
4GG/	.	.	8B/L	.	8dd\L	.	4B\	-nas	.	.	.	.	.	.
.	.	.	16g/L	.	16g\L	.	.	.	.	.	.	.	.	.
.	.	.	16f#X/JJ	.	16f#X\JJ	.	.	.	.	.	.	.	.	.
4r	.	.	16g/LL	.	16g\LL	.	4r	.	.	.	.	.	.	.
.	.	.	16f#/	.	16a\	.	.	.	.	.	.	.	.	.
.	.	.	16g/	.	16b\	.	.	.	.	.	.	.	.	.
.	.	.	16a/JJ	.	16cc\JJ	.	.	.	.	.	.	.	.	.
=118	=118	=118	=118	=118	=118	=118	=118	=118	=118	=118	=118	=118	=118	=118
!LO:TX:t=P:problem=mixed beam	!	!	!LO:TX:t=P:problem=mixed beam	!	!	!	!	!	!	!	!	!	!	!
8GG/L	7	.	16b\LL	.	16dd\LL	.	2d\	Con-	2.r	.	2.ryy	2.ryy	2.r	2.r
.	.	.	16g\	.	16b\	.	.	.	.	.	.	.	.	.
8G\J	.	.	16B/	.	16f#X\	.	.	.	.	.	.	.	.	.
.	.	.	16d/JJ	.	16g\JJ	.	.	.	.	.	.	.	.	.
*tremolo	*	*	*	*	*	*	*	*	*	*	*	*	*	*
8G\L	.	.	(16B/LL	.	16f#\LL	.	.	.	.	.	.	.	.	.
.	.	.	16d/)	.	16g\	.	.	.	.	.	.	.	.	.
8G\	.	.	(16B/	.	16f#\	.	.	.	.	.	.	.	.	.
.	.	.	16d/JJ)	.	16g\JJ	.	.	.	.	.	.	.	.	.
*	*	*	*rep	*	*	*	*	*	*	*	*	*	*	*
8G\	.	.	(16B/LL	.	16f#\LL	.	4B\	-qua-	.	.	.	.	.	.
.	.	.	16d/)	.	16g\	.	.	.	.	.	.	.	.	.
8G\J	.	.	(16B/	.	16f#\	.	.	.	.	.	.	.	.	.
.	.	.	16d/JJ)	.	16g\JJ	.	.	.	.	.	.	.	.	.
*Xtremolo	*	*	*Xrep	*	*	*	*	*	*	*	*	*	*	*
=119	=119	=119	=119	=119	=119	=119	=119	=119	=119	=119	=119	=119	=119	=119
*	*	*	*rep	*	*	*	*	*	*	*	*	*	*	*
!LO:TX:t=P:problem=mixed beam	!	!	!	!	!	!	!	!	!	!	!	!	!	!
8GG/L	.	.	(16B/LL	.	4G/	.	16G\LL	-sa-	2.r	.	2.ryy	2.ryy	2.r	2.r
.	.	.	16d/)	.	.	.	16F#X\	.	.	.	.	.	.	.
8G\	.	.	(16B/	.	.	.	16G\	.	.	.	.	.	.	.
.	.	.	16d/JJ)	.	.	.	16A\JJ	.	.	.	.	.	.	.
*tremolo	*	*	*Xrep	*	*	*	*	*	*	*	*	*	*	*
*	*	*	*rep	*	*	*	*	*	*	*	*	*	*	*
!LO:TX:t=P:problem=błędne wyświetlanie grupy	!	!	!	!	!	!	!	!	!	!	!	!	!	!
8G\	.	.	(16B/LL	.	4r	.	16B\LL	.	.	.	.	.	.	.
.	.	.	16d/)	.	.	.	16A\	.	.	.	.	.	.	.
8G\	.	.	(16B/	.	.	.	16B\	.	.	.	.	.	.	.
.	.	.	16d/JJ)	.	.	.	16c\JJ	.	.	.	.	.	.	.
*	*	*	*Xrep	*	*	*	*	*	*	*	*	*	*	*
*	*	*	*rep	*	*	*	*	*	*	*	*	*	*	*
8G\	.	.	(16B/LL	.	4r	.	8.d\L	.	.	.	.	.	.	.
.	.	.	16d/)	.	.	.	.	.	.	.	.	.	.	.
8G\J	.	.	(16B/	.	.	.	.	.	.	.	.	.	.	.
.	.	.	16d/JJ)	.	.	.	16B\Jk	-bit	.	.	.	.	.	.
*Xtremolo	*	*	*Xrep	*	*	*	*	*	*	*	*	*	*	*
=120	=120	=120	=120	=120	=120	=120	=120	=120	=120	=120	=120	=120	=120	=120
!LO:TX:t=P:problem=mixed beam	!	!	!	!	!LO:TX:t=P:problem=mixed beam	!	!	!	!	!	!	!	!	!
8GG/L	6	.	(16c/LL	.	16ee\LL	.	8.c\	Ca-	2.r	.	2.ryy	2.ryy	2.r	2.r
.	.	.	16e/)	.	16cc\	.	.	.	.	.	.	.	.	.
8G\J	.	.	(16c/	.	16f#X/	.	.	.	.	.	.	.	.	.
.	.	.	16e/JJ)	.	16g/JJ	.	16G\	-pi-	.	.	.	.	.	.
*tremolo	*	*	*rep	*	*	*	*	*	*	*	*	*	*	*
8G\L	.	.	(16c/LL	.	16f#/LL	.	8G\	-ta	.	.	.	.	.	.
.	.	.	16e/)	.	16g/	.	.	.	.	.	.	.	.	.
8G\	.	.	(16c/	.	16f#/	.	8r	.	.	.	.	.	.	.
.	.	.	16e/JJ)	.	16g/JJ	.	.	.	.	.	.	.	.	.
*	*	*	*Xrep	*	*	*	*	*	*	*	*	*	*	*
*	*	*	*rep	*	*	*	*	*	*	*	*	*	*	*
8G\	.	.	(16c/LL	.	16f#/LL	.	8G\	Con-	.	.	.	.	.	.
.	.	.	16e/)	.	16g/	.	.	.	.	.	.	.	.	.
8G\J	.	.	(16c/	.	16f#/	.	8G\	-qua-	.	.	.	.	.	.
.	.	.	16e/JJ)	.	16g/JJ	.	.	.	.	.	.	.	.	.
*Xtremolo	*	*	*Xrep	*	*	*	*	*	*	*	*	*	*	*
=121	=121	=121	=121	=121	=121	=121	=121	=121	=121	=121	=121	=121	=121	=121
*	*	*	*rep	*	*	*	*	*	*	*	*	*	*	*
!LO:TX:t=P:problem=mixed beam	!	!	!	!	!	!	!	!	!	!	!	!	!	!
8GG/L	.	.	(16c/LL	.	4G/	.	8G\L	-Sa-	2.r	.	2.ryy	2.ryy	2.r	2.r
.	.	.	16e/)	.	.	.	.	.	.	.	.	.	.	.
8G\J	.	.	(16c/	.	.	.	16A\L	.	.	.	.	.	.	.
.	.	.	16e/JJ)	.	.	.	16B\JJ	.	.	.	.	.	.	.
*tremolo	*	*	*Xrep	*	*	*	*	*	*	*	*	*	*	*
*	*	*	*rep	*	*	*	*	*	*	*	*	*	*	*
8G\L	.	.	(16c/LL	.	4r	.	16c\LL	.	.	.	.	.	.	.
.	.	.	16e/)	.	.	.	16B\	.	.	.	.	.	.	.
8G\	.	.	(16c/	.	.	.	16c\	.	.	.	.	.	.	.
.	.	.	16e/JJ)	.	.	.	16d\JJ	.	.	.	.	.	.	.
*	*	*	*Xrep	*	*	*	*	*	*	*	*	*	*	*
*	*	*	*rep	*	*	*	*	*	*	*	*	*	*	*
8G\	.	.	(16c/LL	.	4r	.	8.e\L	.	.	.	.	.	.	.
.	.	.	16e/)	.	.	.	.	.	.	.	.	.	.	.
8G\J	.	.	(16c/	.	.	.	.	.	.	.	.	.	.	.
.	.	.	16e/JJ)	.	.	.	16c\Jk	-bit	.	.	.	.	.	.
*Xtremolo	*	*	*Xrep	*	*	*	*	*	*	*	*	*	*	*
=122	=122	=122	=122	=122	=122	=122	=122	=122	=122	=122	=122	=122	=122	=122
!LO:TX:t=P:problem=mixed beam	!	!	!	!	!LO:TX:t=P:problem=mixed beam	!	!	!	!	!	!	!	!	!
!	!	!	!	!	!LO:LB:g=original	!	!	!	!	!	!	!	!	!
8GG/L	7	.	(16d/LL	.	16ff\LL	.	8.d\L	Ca-	2.r	.	2.ryy	2.ryy	2.r	2.r
.	.	.	16f/)	.	16dd\	.	.	.	.	.	.	.	.	.
8G\J	.	.	(16d/	.	16f#X/	.	.	.	.	.	.	.	.	.
.	.	.	16f/JJ)	.	16g/JJ	.	16B\Jk	-pi-	.	.	.	.	.	.
*tremolo	*	*	*rep	*	*	*	*	*	*	*	*	*	*	*
8G\L	.	.	(16d/LL	.	16f#/LL	.	8G\	-ta	.	.	.	.	.	.
.	.	.	16f/)	.	16g/	.	.	.	.	.	.	.	.	.
8G\	.	.	(16d/	.	16f#/	.	8r	.	.	.	.	.	.	.
.	.	.	16f/JJ)	.	16g/JJ	.	.	.	.	.	.	.	.	.
*	*	*	*Xrep	*	*	*	*	*	*	*	*	*	*	*
*	*	*	*rep	*	*	*	*	*	*	*	*	*	*	*
!	!	!	!	!	!	!	!LO:LB:g=original	!	!	!	!	!	!	!
8G\	.	.	(16d/LL	.	16f#/LL	.	8G\	con-	.	.	.	.	.	.
.	.	.	16f/)	.	16g/	.	.	.	.	.	.	.	.	.
8G\J	.	.	(16d/	.	16f#/	.	8G\	-qua-	.	.	.	.	.	.
.	.	.	16f/JJ)	.	16g/JJ	.	.	.	.	.	.	.	.	.
*Xtremolo	*	*	*Xrep	*	*	*	*	*	*	*	*	*	*	*
=123	=123	=123	=123	=123	=123	=123	=123	=123	=123	=123	=123	=123	=123	=123
*	*	*	*rep	*	*	*	*	*	*	*	*	*	*	*
!LO:TX:t=P:problem=mixed beam	!	!	!	!	!	!	!	!	!	!	!	!	!	!
8GG/L	.	.	(16d/LL	.	4G/	.	16G\LL	-sa-	2.r	.	2.ryy	2.ryy	2.r	2.r
.	.	.	16f/)	.	.	.	16F#X\	.	.	.	.	.	.	.
8G\	.	.	(16d/	.	.	.	16G\	.	.	.	.	.	.	.
.	.	.	16f/JJ)	.	.	.	16A\JJ	.	.	.	.	.	.	.
*tremolo	*	*	*Xrep	*	*	*	*	*	*	*	*	*	*	*
*	*	*	*rep	*	*	*	*	*	*	*	*	*	*	*
8G\	.	.	(16d/LL	.	4r	.	16B\LL	.	.	.	.	.	.	.
.	.	.	16f/)	.	.	.	16c\	.	.	.	.	.	.	.
8G\	.	.	(16d/	.	.	.	16d\	.	.	.	.	.	.	.
.	.	.	16f/JJ)	.	.	.	16e\JJ	.	.	.	.	.	.	.
*	*	*	*Xrep	*	*	*	*	*	*	*	*	*	*	*
*	*	*	*rep	*	*	*	*	*	*	*	*	*	*	*
8G\	.	.	(16d/LL	.	4r	.	8.f\	.	.	.	.	.	.	.
.	.	.	16f/)	.	.	.	.	.	.	.	.	.	.	.
8B\J	.	.	(16d/	.	.	.	.	.	.	.	.	.	.	.
.	.	.	16f/JJ)	.	.	.	16d\	-bit	.	.	.	.	.	.
*Xtremolo	*	*	*Xrep	*	*	*	*	*	*	*	*	*	*	*
=124	=124	=124	=124	=124	=124	=124	=124	=124	=124	=124	=124	=124	=124	=124
*tremolo	*	*	*	*	*tremolo	*	*	*	*	*	*	*	*	*
!LO:TX:t=P:problem=błędne wyświetlanie grupy	!	!	!	!	!	!	!	!	!	!	!	!	!	!
8c\L	.	.	8e/L	.	8cc\L	.	4.e\	Ca-	2.r	.	2.ryy	2.ryy	2.r	2.r
8c\	.	.	8g/	.	8cc\	.	.	.	.	.	.	.	.	.
8c\	.	.	8e/	.	8cc\	.	.	.	.	.	.	.	.	.
8c\	.	.	8g/	.	8cc\	.	8c\	-pi-	.	.	.	.	.	.
*Xtremolo	*	*	*	*	*	*	*	*	*	*	*	*	*	*
8E\	.	.	8e/	.	8cc\	.	8G\	-ta	.	.	.	.	.	.
8G\J	.	.	8g/J	.	8cc\J	.	8B-X\	in	.	.	.	.	.	.
*	*	*	*	*	*Xtremolo	*	*	*	*	*	*	*	*	*
=125	=125	=125	=125	=125	=125	=125	=125	=125	=125	=125	=125	=125	=125	=125
!LO:TX:t=P:problem=mixed beam	!	!	!	!	!	!	!	!	!	!	!	!	!	!
8F\L	.	.	8f/L	.	8dd\L	.	16A\LL	ter-	2.r	.	2.ryy	2.ryy	2.r	2.r
.	.	.	.	.	.	.	16Bn\JJ	.	.	.	.	.	.	.
8F\	.	.	8a/	.	8dd\	.	16c\	-ra	.	.	.	.	.	.
.	.	.	.	.	.	.	16d\	mul-	.	.	.	.	.	.
8G\	.	.	8cc/	.	8ee\	.	(4c\	-to-	.	.	.	.	.	.
8G\	.	.	8cc/	.	8ee\	.	.	.	.	.	.	.	.	.
8GG/	.	.	8dd/	.	8ff\	.	4Bt\)	.	.	.	.	.	.	.
8GG/J	.	.	8dd/J	.	8ff\J	.	.	.	.	.	.	.	.	.
=126	=126	=126	=126	=126	=126	=126	=126	=126	=126	=126	=126	=126	=126	=126
!	!	!	!LO:LB:g=original	!	!	!	!	!	!	!	!	!	!	!
4C/	.	.	16cc/LL	.	16ee\LL	.	4c\	-rum	2.r	.	2.ryy	2.ryy	2.r	2.r
.	.	.	16c/	.	16cc\	.	.	.	.	.	.	.	.	.
.	.	.	16d/	.	16dd\	.	.	.	.	.	.	.	.	.
.	.	.	16e/JJ	.	16ee\JJ	.	.	.	.	.	.	.	.	.
4CC/	.	.	16f/LL	.	16ff\LL	.	4r	.	.	.	.	.	.	.
.	.	.	16g/	.	16gg\	.	.	.	.	.	.	.	.	.
.	.	.	16a/	.	16aa\	.	.	.	.	.	.	.	.	.
.	.	.	16b/JJ	.	16bb\JJ	.	.	.	.	.	.	.	.	.
4r	.	.	16cc/LL	.	16ccc\LL	.	4r	.	.	.	.	.	.	.
.	.	.	16g/	.	16gg\	.	.	.	.	.	.	.	.	.
.	.	.	16e/	.	16ee\	.	.	.	.	.	.	.	.	.
.	.	.	16c/JJ	.	16cc\JJ	.	.	.	.	.	.	.	.	.
=127	=127	=127	=127	=127	=127	=127	=127	=127	=127	=127	=127	=127	=127	=127
!LO:TX:t=P:problem=mixed beam	!	!	!	!	!	!	!	!	!	!	!	!	!	!
8GG/L	7	.	(16B/LL	.	16dd\LL	.	2d\	con-	2.r	.	2.ryy	2.ryy	2.r	2.r
.	.	.	16d/)	.	16b\	.	.	.	.	.	.	.	.	.
8G\J	.	.	(16B/	.	16f#X\	.	.	.	.	.	.	.	.	.
.	.	.	16d/JJ)	.	16g\JJ	.	.	.	.	.	.	.	.	.
*tremolo	*	*	*rep	*	*	*	*	*	*	*	*	*	*	*
8G\L	.	.	(16B/LL	.	16f#/LL	.	.	.	.	.	.	.	.	.
.	.	.	16d/)	.	16g/	.	.	.	.	.	.	.	.	.
8G\	.	.	(16B/	.	16f#/	.	.	.	.	.	.	.	.	.
.	.	.	16d/JJ)	.	16g/JJ	.	.	.	.	.	.	.	.	.
*	*	*	*Xrep	*	*	*	*	*	*	*	*	*	*	*
*	*	*	*rep	*	*	*	*	*	*	*	*	*	*	*
8G\	.	.	(16B/LL	.	16f#/LL	.	4B\	-qua-	.	.	.	.	.	.
.	.	.	16d/)	.	16g/	.	.	.	.	.	.	.	.	.
8G\J	.	.	(16B/	.	16f#/	.	.	.	.	.	.	.	.	.
.	.	.	16d/JJ)	.	16g/JJ	.	.	.	.	.	.	.	.	.
*Xtremolo	*	*	*Xrep	*	*	*	*	*	*	*	*	*	*	*
=128	=128	=128	=128	=128	=128	=128	=128	=128	=128	=128	=128	=128	=128	=128
*	*	*	*rep	*	*	*	*	*	*	*	*	*	*	*
!LO:TX:t=P:problem=mixed beam	!	!	!	!	!	!	!	!	!	!	!	!	!	!
8GG/L	.	.	(16B/LL	.	4G/	.	16G\LL	-sa-	2.r	.	2.ryy	2.ryy	2.r	2.r
.	.	.	16d/)	.	.	.	16F#X\	.	.	.	.	.	.	.
8G\J	.	.	(16B/	.	.	.	16G\	.	.	.	.	.	.	.
.	.	.	16d/JJ)	.	.	.	16A\JJ	.	.	.	.	.	.	.
*tremolo	*	*	*Xrep	*	*	*	*	*	*	*	*	*	*	*
*	*	*	*rep	*	*	*	*	*	*	*	*	*	*	*
8G\L	.	.	(16B/LL	.	4r	.	16B\LL	.	.	.	.	.	.	.
.	.	.	16d/)	.	.	.	16A\	.	.	.	.	.	.	.
8G\	.	.	(16B/	.	.	.	16B\	.	.	.	.	.	.	.
.	.	.	16d/JJ)	.	.	.	16c\JJ	.	.	.	.	.	.	.
*	*	*	*Xrep	*	*	*	*	*	*	*	*	*	*	*
*	*	*	*rep	*	*	*	*	*	*	*	*	*	*	*
8G\	.	.	(16B/LL	.	4r	.	8.d\	.	.	.	.	.	.	.
.	.	.	16d/)	.	.	.	.	.	.	.	.	.	.	.
8G\J	.	.	(16B/	.	.	.	.	.	.	.	.	.	.	.
.	.	.	16d/JJ)	.	.	.	16B\	-bit	.	.	.	.	.	.
*Xtremolo	*	*	*Xrep	*	*	*	*	*	*	*	*	*	*	*
=129	=129	=129	=129	=129	=129	=129	=129	=129	=129	=129	=129	=129	=129	=129
!LO:TX:t=P:problem=mixed beam	!	!	!	!	!LO:TX:t=P:problem=mixed beam	!	!	!	!	!	!	!	!	!
8GG/L	6	.	16c/LL	.	16ee\LL	.	8.c\	Ca-	2.r	.	2.ryy	2.ryy	2.r	2.r
.	.	.	16e/	.	16cc\	.	.	.	.	.	.	.	.	.
8G\J	.	.	16c/	.	16f#X/	.	.	.	.	.	.	.	.	.
.	.	.	16e/JJ	.	16g/JJ	.	16G\	-pi-	.	.	.	.	.	.
*tremolo	*	*	*rep	*	*	*	*	*	*	*	*	*	*	*
8G\L	.	.	16c/LL	.	16f#/LL	.	8G\	-ta	.	.	.	.	.	.
.	.	.	16e/	.	16g/	.	.	.	.	.	.	.	.	.
8G\	.	.	16c/	.	16f#/	.	8r	.	.	.	.	.	.	.
.	.	.	16e/JJ	.	16g/JJ	.	.	.	.	.	.	.	.	.
*	*	*	*Xrep	*	*	*	*	*	*	*	*	*	*	*
*	*	*	*rep	*	*	*	*	*	*	*	*	*	*	*
!	!	!	!	!	!LO:LB:g=original	!	!	!	!	!	!	!	!	!
8G\	.	.	16c/LL	.	16f#/LL	.	8G\	Con-	.	.	.	.	.	.
.	.	.	16e/	.	16g/	.	.	.	.	.	.	.	.	.
8G\J	.	.	16c/	.	16f#/	.	8G\	-qua-	.	.	.	.	.	.
.	.	.	16e/JJ	.	16g/JJ	.	.	.	.	.	.	.	.	.
*Xtremolo	*	*	*Xrep	*	*	*	*	*	*	*	*	*	*	*
=130	=130	=130	=130	=130	=130	=130	=130	=130	=130	=130	=130	=130	=130	=130
*	*	*	*rep	*	*	*	*	*	*	*	*	*	*	*
!LO:TX:t=P:problem=mixed beam	!	!	!	!	!	!	!	!	!	!	!	!	!	!
8GG/L	.	.	16c/LL	.	4G/	.	8G\L	-Sa-	2.r	.	2.ryy	2.ryy	2.r	2.r
.	.	.	16e/	.	.	.	.	.	.	.	.	.	.	.
8G\J	.	.	16c/	.	.	.	16A\L	.	.	.	.	.	.	.
.	.	.	16e/JJ	.	.	.	16B\JJ	.	.	.	.	.	.	.
*tremolo	*	*	*Xrep	*	*	*	*	*	*	*	*	*	*	*
*	*	*	*rep	*	*	*	*	*	*	*	*	*	*	*
8G\L	.	.	16c/LL	.	4r	.	16c\LL	.	.	.	.	.	.	.
.	.	.	16e/	.	.	.	16B\	.	.	.	.	.	.	.
8G\	.	.	16c/	.	.	.	16c\	.	.	.	.	.	.	.
.	.	.	16e/JJ	.	.	.	16d\JJ	.	.	.	.	.	.	.
*	*	*	*Xrep	*	*	*	*	*	*	*	*	*	*	*
*	*	*	*rep	*	*	*	*	*	*	*	*	*	*	*
8G\	.	.	16c/LL	.	4r	.	8.e\	.	.	.	.	.	.	.
.	.	.	16e/	.	.	.	.	.	.	.	.	.	.	.
8G\J	.	.	16c/	.	.	.	.	.	.	.	.	.	.	.
.	.	.	16e/JJ	.	.	.	16c\	-bit	.	.	.	.	.	.
*Xtremolo	*	*	*Xrep	*	*	*	*	*	*	*	*	*	*	*
=131	=131	=131	=131	=131	=131	=131	=131	=131	=131	=131	=131	=131	=131	=131
!LO:TX:t=P:problem=mixed beam	!	!	!	!	!LO:TX:t=P:problem=mixed beam	!	!	!	!	!	!	!	!	!
!LO:LB:g=original	!	!	!	!	!	!	!	!	!	!	!	!	!	!
8GG/L	7	.	(16d/LL	.	16ff\LL	.	8.d\	Ca-	2.r	.	2.ryy	2.ryy	2.r	2.r
.	.	.	16f/)	.	16dd\	.	.	.	.	.	.	.	.	.
8G\J	.	.	(16d/	.	16f#X/	.	.	.	.	.	.	.	.	.
.	.	.	16f/JJ)	.	16g/JJ	.	16B\	-pi-	.	.	.	.	.	.
*tremolo	*	*	*rep	*	*	*	*	*	*	*	*	*	*	*
8G\L	.	.	(16d/LL	.	16f#/LL	.	8G\	-ta	.	.	.	.	.	.
.	.	.	16f/)	.	16g/	.	.	.	.	.	.	.	.	.
8G\	.	.	(16d/	.	16f#/	.	8r	.	.	.	.	.	.	.
.	.	.	16f/JJ)	.	16g/JJ	.	.	.	.	.	.	.	.	.
*	*	*	*Xrep	*	*	*	*	*	*	*	*	*	*	*
*	*	*	*rep	*	*	*	*	*	*	*	*	*	*	*
8G\	.	.	(16d/LL	.	16f#/LL	.	8G\	con-	.	.	.	.	.	.
.	.	.	16f/)	.	16g/	.	.	.	.	.	.	.	.	.
8G\J	.	.	(16d/	.	16f#/	.	8G\	-qua-	.	.	.	.	.	.
.	.	.	16f/JJ)	.	16g/JJ	.	.	.	.	.	.	.	.	.
*Xtremolo	*	*	*Xrep	*	*	*	*	*	*	*	*	*	*	*
=132	=132	=132	=132	=132	=132	=132	=132	=132	=132	=132	=132	=132	=132	=132
*	*	*	*rep	*	*	*	*	*	*	*	*	*	*	*
!LO:TX:t=P:problem=mixed beam	!	!	!	!	!	!	!	!	!	!	!	!	!	!
8GG/L	.	.	(16d/LL	.	4G/	.	16G\LL	-Sa-	2.r	.	2.ryy	2.ryy	2.r	2.r
.	.	.	16f/)	.	.	.	16F#X\	.	.	.	.	.	.	.
8G\	.	.	(16d/	.	.	.	16G\	.	.	.	.	.	.	.
.	.	.	16f/JJ)	.	.	.	16A\JJ	.	.	.	.	.	.	.
*	*	*	*Xrep	*	*	*	*	*	*	*	*	*	*	*
*	*	*	*rep	*	*	*	*	*	*	*	*	*	*	*
8G\	.	.	(16d/LL	.	4r	.	16B\LL	.	.	.	.	.	.	.
.	.	.	16f/)	.	.	.	16c\	.	.	.	.	.	.	.
8G\	.	.	(16d/	.	.	.	16d\	.	.	.	.	.	.	.
.	.	.	16f/JJ)	.	.	.	16e\JJ	.	.	.	.	.	.	.
*	*	*	*Xrep	*	*	*	*	*	*	*	*	*	*	*
*	*	*	*rep	*	*	*	*	*	*	*	*	*	*	*
!	!	!	!	!	!	!	!LO:LB:g=original	!	!	!	!	!	!	!
8G\	.	.	(16d/LL	.	4r	.	8.f\	.	.	.	.	.	.	.
.	.	.	16f/)	.	.	.	.	.	.	.	.	.	.	.
8B\J	.	.	(16d/	.	.	.	.	.	.	.	.	.	.	.
.	.	.	16f/JJ)	.	.	.	16d\	-bit	.	.	.	.	.	.
*	*	*	*Xrep	*	*	*	*	*	*	*	*	*	*	*
=133	=133	=133	=133	=133	=133	=133	=133	=133	=133	=133	=133	=133	=133	=133
*tremolo	*	*	*	*	*tremolo	*	*	*	*	*	*	*	*	*
8c\L	.	.	8e/L	.	8cc\L	.	4.e\	Ca-	2.r	.	2.ryy	2.ryy	2.r	2.r
8c\	.	.	8g/	.	8cc\	.	.	.	.	.	.	.	.	.
8c\	.	.	8e/	.	8cc\	.	.	.	.	.	.	.	.	.
8c\J	.	.	8g/	.	8cc\	.	8c\	-pi-	.	.	.	.	.	.
*Xtremolo	*	*	*	*	*	*	*	*	*	*	*	*	*	*
8E\L	.	.	8e/	.	8cc\	.	8G\	-ta	.	.	.	.	.	.
8G\J	.	.	8g/J	.	8cc\J	.	8B-X\	in	.	.	.	.	.	.
*	*	*	*	*	*Xtremolo	*	*	*	*	*	*	*	*	*
=134	=134	=134	=134	=134	=134	=134	=134	=134	=134	=134	=134	=134	=134	=134
!LO:TX:t=P:problem=mixed beam	!	!	!	!	!	!	!	!	!	!	!	!	!	!
8F\L	.	.	8f/L	.	8dd\L	.	16A\LL	ter-	2.r	.	2.ryy	2.ryy	2.r	2.r
.	.	.	.	.	.	.	16Bn\JJ	.	.	.	.	.	.	.
8F\	.	.	8a/	.	8dd\	.	16c\	-ra	.	.	.	.	.	.
.	.	.	.	.	.	.	16d\	mul-	.	.	.	.	.	.
8G\	.	.	8cc/	.	8ee\	.	(4c\	-to-	.	.	.	.	.	.
8G\	.	.	8cc/	.	8ee\	.	.	.	.	.	.	.	.	.
8GG/	.	.	8dd/	.	8ff\	.	4B\)	.	.	.	.	.	.	.
8GG/J	.	.	8dd/J	.	8ff\J	.	.	.	.	.	.	.	.	.
=135	=135	=135	=135	=135	=135	=135	=135	=135	=135	=135	=135	=135	=135	=135
!LO:TX:t=P:problem=mixed beam	!	!	!	!	!	!	!	!	!	!	!	!	!	!
!	!	!	!LO:LB:g=original	!	!	!	!	!	!	!	!	!	!	!
!	!	!	!	!LO:DY:b:t=for	!	!	!	!	!	!	!	!	!	!
8C/L	.	.	4cc 4e 4G/	f	4ee\	.	4c\	-rum	2.r	.	2.ryy	2.ryy	4e/	4cc\
8c/	.	.	.	.	.	.	.	.	.	.	.	.	.	.
*tremolo	*	*	*	*	*	*	*	*	*	*	*	*	*	*
!LO:TX:t=P:problem=błędne wyświetlanie grupy	!	!	!	!	!	!LO:DY:a:t=for	!	!	!	!	!	!	!	!
8c/	.	.	16c/LL	.	16cc\LL	f	4r	.	.	.	.	.	8e/L	8cc\L
.	.	.	16B/	.	16b\	.	.	.	.	.	.	.	.	.
8c/	.	.	16c/	.	16cc\	.	.	.	.	.	.	.	8g/	8dd\
.	.	.	16d/JJ	.	16dd\JJ	.	.	.	.	.	.	.	.	.
8c/	.	.	16e/LL	.	16ee\LL	.	4r	.	.	.	.	.	8cc/	8ee\
.	.	.	16d/	.	16dd\	.	.	.	.	.	.	.	.	.
8c/J	.	.	16e/	.	16ee\	.	.	.	.	.	.	.	8dd/J	8ff\J
.	.	.	16f/JJ	.	16ff\JJ	.	.	.	.	.	.	.	.	.
*Xtremolo	*	*	*	*	*	*	*	*	*	*	*	*	*	*
=136	=136	=136	=136	=136	=136	=136	=136	=136	=136	=136	=136	=136	=136	=136
!LO:TX:t=P:problem=mixed beam	!	!	!	!	!	!	!	!	!	!	!	!	!	!
8BB/L	.	.	4.g/	.	4.gg\	.	2.r	.	2.r	.	2.ryy	2.ryy	4.ee\	4.gg\
8B/	.	.	.	.	.	.	.	.	.	.	.	.	.	.
*tremolo	*	*	*	*	*	*	*	*	*	*	*	*	*	*
!LO:TX:t=P:problem=błędne wyświetlanie grupy	!	!	!	!	!	!	!	!	!	!	!	!	!	!
8B/	.	.	.	.	.	.	.	.	.	.	.	.	.	.
8B/	.	.	8g/L	.	8gg\L	.	.	.	.	.	.	.	8g/L	8gg\L
8B/	.	.	8a/	.	8aa\	.	.	.	.	.	.	.	8a/	8aa\
8B/J	.	.	8b/J	.	8bb\J	.	.	.	.	.	.	.	8b/J	8bb\J
*Xtremolo	*	*	*	*	*	*	*	*	*	*	*	*	*	*
=137	=137	=137	=137	=137	=137	=137	=137	=137	=137	=137	=137	=137	=137	=137
*tremolo	*	*	*tremolo	*	*tremolo	*	*	*	*	*	*	*	*	*
8A\L	.	.	16cc\LL	.	16ccc\LL	.	2.r	.	2.r	.	2.ryy	2.ryy	2aa\	2ccc\
.	.	.	16cc\	.	16ccc\	.	.	.	.	.	.	.	.	.
8A\	.	.	16cc\	.	16ccc\	.	.	.	.	.	.	.	.	.
.	.	.	16cc\	.	16ccc\	.	.	.	.	.	.	.	.	.
8A\	.	.	16cc\	.	16ccc\	.	.	.	.	.	.	.	.	.
.	.	.	16cc\	.	16ccc\	.	.	.	.	.	.	.	.	.
8A\J	.	.	16cc\	.	16ccc\	.	.	.	.	.	.	.	.	.
.	.	.	16cc\JJ	.	16ccc\JJ	.	.	.	.	.	.	.	.	.
*Xtremolo	*	*	*	*	*	*	*	*	*	*	*	*	*	*
8G\L	.	.	16b\LL	.	16bb\LL	.	.	.	.	.	.	.	4gg\	4bb\
.	.	.	16b\	.	16bb\	.	.	.	.	.	.	.	.	.
8G\J	.	.	16b\	.	16bb\	.	.	.	.	.	.	.	.	.
.	.	.	16b\JJ	.	16bb\JJ	.	.	.	.	.	.	.	.	.
=138	=138	=138	=138	=138	=138	=138	=138	=138	=138	=138	=138	=138	=138	=138
*tremolo	*	*	*	*	*	*	*	*	*	*	*	*	*	*
8F\L	.	.	16a/LL	.	16aa\LL	.	2.r	.	2.r	.	2.ryy	2.ryy	2ff\	2aa\
.	.	.	16a/	.	16aa\	.	.	.	.	.	.	.	.	.
8F\	.	.	16a/	.	16aa\	.	.	.	.	.	.	.	.	.
.	.	.	16a/	.	16aa\	.	.	.	.	.	.	.	.	.
8F\	.	.	16a/	.	16aa\	.	.	.	.	.	.	.	.	.
.	.	.	16a/	.	16aa\	.	.	.	.	.	.	.	.	.
8F\J	.	.	16a/	.	16aa\	.	.	.	.	.	.	.	.	.
.	.	.	16a/JJ	.	16aa\JJ	.	.	.	.	.	.	.	.	.
*Xtremolo	*	*	*	*	*	*	*	*	*	*	*	*	*	*
8E\L	.	.	16g/LL	.	16gg\LL	.	.	.	.	.	.	.	4ee\	4gg\
.	.	.	16g/	.	16gg\	.	.	.	.	.	.	.	.	.
8E\J	.	.	16g/	.	16gg\	.	.	.	.	.	.	.	.	.
.	.	.	16g/JJ	.	16gg\JJ	.	.	.	.	.	.	.	.	.
*	*	*	*Xtremolo	*	*Xtremolo	*	*	*	*	*	*	*	*	*
=139	=139	=139	=139	=139	=139	=139	=139	=139	=139	=139	=139	=139	=139	=139
!	!	!	!	!	!	!	!	!	!	!	!	!	!LO:LB:g=original	!
8E\L	.	.	8e/L	.	16aa\LL	.	2.r	.	2.r	.	2.ryy	2.ryy	4ee\	4ggM\M
.	.	.	.	.	16gg\	.	.	.	.	.	.	.	.	.
8E\	.	.	8cc/	.	16ff#X\	.	.	.	.	.	.	.	.	.
.	.	.	.	.	16gg\JJ	.	.	.	.	.	.	.	.	.
!	!	!	!	!	!LO:LB:g=original	!	!	!	!	!	!	!	!LO:TX:t=P:problem=mixed beam	!
8F\	.	.	8f/	.	8aa\L	.	.	.	.	.	.	.	8ff\L	8aa\L
8F\	.	.	8a/	.	8ffn\	.	.	.	.	.	.	.	8dd\	8ff\
8G\	.	.	8f/	.	8dd\	.	.	.	.	.	.	.	8f/	8dd\
8G\J	.	.	8g/J	.	8b\J	.	.	.	.	.	.	.	8d/J	8b\J
=140	=140	=140	=140	=140	=140	=140	=140	=140	=140	=140	=140	=140	=140	=140
!LO:TX:t=P:problem=mixed beam	!	!	!	!	!	!	!	!	!	!	!	!	!	!
8C/L	.	.	4e 4G/	.	4cc 4e/	.	2.r	.	2.r	.	2.ryy	2.ryy	4e/	4cc\
8c\	.	.	.	.	.	.	.	.	.	.	.	.	.	.
8G\	.	.	4e 4G/	.	4cc 4e 4G/	.	.	.	.	.	.	.	4cc\	4ee\
8c\	.	.	.	.	.	.	.	.	.	.	.	.	.	.
8E\	.	.	4e 4G/	.	4cc 4e 4G/	.	.	.	.	.	.	.	4cc\	4ee\
8G\J	.	.	.	.	.	.	.	.	.	.	.	.	.	.
=141	=141	=141	=141	=141	=141	=141	=141	=141	=141	=141	=141	=141	=141	=141
4C/	.	.	4e 4G/	.	4cc 4e 4G/	.	2.r	.	2.r	.	2.ryy	2.ryy	4cc\	4ee\
4CC/	.	.	4c/	.	4r	.	.	.	.	.	.	.	4r	4r
4r	.	.	4r	.	4r	.	.	.	.	.	.	.	4r	4r
==	==	==	==	==	==	==	==	==	==	==	==	==	==	==
*-	*-	*-	*-	*-	*-	*-	*-	*-	*-	*-	*-	*-	*-	*-
!!!system-decoration: [(g1)][(g2)][(g3)][(g4)]s9
!!!RDF**kern: | = vertical stroke
!!!ENC: Mateusz Solarz
!!!END: 2021-12-02
!!!ENC: Kamil Watkowski
!!!END: 2021-12-15
